!!!id: 17xx:549
!!!COM: Ruth, Christian Joseph
!!!OTL: In omnem terram exivit
!!!PDT:
!!!SMS-siglum: PL-SA
!!!SMS-shelfmark: 254/A VII 14
!!!NIFC-rismID: 1001069559
!!!URL-scan: http://bc.bdsandomierz.pl/dlibra/publication/1779/edition/1747/content
!!!ONB-nifc:
!!!SMS-variant:
!!!SMS-altvar:
**kern	**fba	**kern	**dynam	**kern	**kern	**text	**kern	**text	**kern	**text	**kern	**text	**kern	**kern	**dynam
*part9	*	*part8	*part8	*part7	*part6	*part6	*part5	*part5	*part4	*part4	*part3	*part3	*part2	*part1	*part1
*staff9	*	*staff8	*	*staff7	*staff6	*staff6	*staff5	*staff5	*staff4	*staff4	*staff3	*staff3	*staff2	*staff1	*
*group4	*	*group3	*	*group3	*group2	*	*group2	*	*group2	*	*group2	*	*group1	*group1	*
*I"Organo Generali	*	*I"Violino 2do	*	*I"Violino 1mo	*I"Baſso	*	*I"Tenore	*	*I"Alto	*	*I"Canto	*	*I"Clarino 2do ex Ge	*I"Clarino 1mo ex Ge	*
*I'org	*	*I'vl 2	*	*I'vl 1	*I'B	*	*I'T	*	*I'A	*	*I'S	*	*I'clno 2 in G	*I'clno 1 in G	*
*clefF4	*	*clefG2	*	*clefG2	*clefF4	*	*clefC4	*	*clefC3	*	*clefC1	*	*clefG2	*clefG2	*
*	*	*	*	*	*	*	*	*	*	*	*	*	*ITrd3c5	*ITrd3c5	*
*k[f#]	*	*k[f#]	*	*k[f#]	*k[f#]	*	*k[f#]	*	*k[f#]	*	*k[f#]	*	*k[f#]	*k[f#]	*
*M4/4	*	*M4/4	*	*M4/4	*M4/4	*	*M4/4	*	*M4/4	*	*M4/4	*	*M4/4	*M4/4	*
*met(c)	*	*met(c)	*	*met(c)	*met(c)	*	*met(c)	*	*met(c)	*	*met(c)	*	*met(c)	*met(c)	*
=1	=1	=1	=1	=1	=1	=1	=1	=1	=1	=1	=1	=1	=1	=1	=1
!	!	!LO:TX:a:t=P:problem:4\right, 8\right, 16\right:global	!	!LO:TX:a:t=P:problem:mixed beam	!	!	!	!	!	!	!	!	!LO:TX:a:t=P:problem:mixed beam	!	!
!LO:TX:a:t=P:problem:4\right, 8\right, 16\right:global	!	!LO:TX:a:t=P:problem:krzyżyki f# ff# jeden nad drugim	!	!LO:TX:a:t=P:problem:4\right, 8\right, 16\right:global	!	!	!LO:TX:a:t=de Apoſtolis	!	!	!	!	!	!LO:TX:a:t=P:problem:4\right, 8\right, 16\right:global	!LO:TX:a:t=P:problem:4\right, 8\right, 16\right:global	!
!LO:TX:a:t=P:problem:metrum z kropką	!	!LO:TX:a:t=P:problem:metrum z kropką	!	!LO:TX:a:t=P:problem:metrum z kropką	!LO:TX:a:t=P:problem:2\right, 4\right, 8\right, 16\right:global	!	!LO:TX:a:t=P:problem:4\right, 8\right, 16\right:global	!	!LO:TX:a:t=P:problem:4\right, 8\right, 16\right:global	!	!LO:TX:a:t=P:problem:4\right, 8\right, 16\right:global	!	!LO:TX:a:t=P:problem:metrum z kropką	!LO:TX:b:t=In omnem terram	!
!LO:TX:a:t=In omnem terram	!	!LO:TX:b:t=In omnem terram	!	!LO:TX:a:t=In omnem terram	!LO:TX:a:t=P:problem:metrum z kropką	!	!LO:TX:a:t=P:problem:metrum z kropką	!	!LO:TX:a:t=deaPoſtolis	!	!LO:TX:a:t=P:problem:metrum z kropką	!	!LO:TX:a:t=Vivace	!LO:TX:a:t=Vivace	!
!LO:TX:a:t=Vivace Solo	!	!LO:TX:a:t=Vivace	!	!LO:TX:a:t=Vivace	!LO:TX:a:t=Viuace	!	!LO:TX:a:t=Vivace	!	!LO:TX:a:t=Vivace	!	!LO:TX:a:t=Vivace	!	!LO:TX:b:t=In omnem terram	!LO:TX:a:t=P:problem:metrum z kropką	!
!	!	!	!	!LO:TX:a:t=P:problem:8\right	!	!	!	!	!	!	!	!	!	!	!
8G\L	.	8b/L	.	8gg\L	00r	.	00r	.	00r	.	00r	.	8g\L	8b\L	.
8G\	.	8b/	.	8g/J	.	.	.	.	.	.	.	.	8B/	8g\J	.
!	!	!	!	!LO:TX:a:t=P:problem:mixed beam	!	!	!	!	!	!	!	!	!	!	!
!	!	!	!	!LO:TX:a:t=P:problem:16\right	!	!	!	!	!	!	!	!	!	!	!
8F#\	.	8a/	.	16g/LL	.	.	.	.	.	.	.	.	8d/	16a\LL	.
.	.	.	.	16dd\	.	.	.	.	.	.	.	.	.	16dd\	.
8F#\J	.	8a/J	.	16ee\	.	.	.	.	.	.	.	.	8a\J	16cc\	.
.	.	.	.	16ff#\JJ	.	.	.	.	.	.	.	.	.	16dd\JJ	.
!	!	!LO:TX:a:t=P:problem:8\right	!	!	!	!	!	!	!	!	!	!	!	!	!
!	!	!LO:TX:a:t=P:problem:mixed beam	!	!LO:TX:a:t=P:problem:mixed beam	!	!	!	!	!	!	!	!	!LO:TX:a:t=P:problem:mixed beam	!	!
8E\L	.	8b\L	.	8gg\L	.	.	.	.	.	.	.	.	8g\L	8b\L	.
8E\	.	8B/J	.	8.g/J	.	.	.	.	.	.	.	.	8B/J	8g\J	.
8D\	.	16d/LL	.	.	.	.	.	.	.	.	.	.	8d\L	16a\LL	.
.	.	16f#/	.	16dd\LL	.	.	.	.	.	.	.	.	.	16dd\	.
8D\J	.	16g/	.	16ee\	.	.	.	.	.	.	.	.	16a\L	16cc\	.
.	.	16a/JJ	.	16ff#\JJ	.	.	.	.	.	.	.	.	16b\JJ	16dd\JJ	.
=2	=2	=2	=2	=2	=2	=2	=2	=2	=2	=2	=2	=2	=2	=2	=2
!	!	!	!	!LO:TX:a:t=P:problem:mixed beam	!	!	!	!	!	!	!	!	!	!	!
8C/L	.	8e/L	.	8gg\L	.	.	.	.	.	.	.	.	8cc\L	8ee\L	.
8C/	.	8e/J	.	8g/J	.	.	.	.	.	.	.	.	8g\J	8g\J	.
8AA/	.	8c/L	.	16g/LL	.	.	.	.	.	.	.	.	16a\LL	16cc\LL	.
.	.	.	.	16a/	.	.	.	.	.	.	.	.	16b\	16dd\	.
8AA/J	.	16d/L	.	16b/	.	.	.	.	.	.	.	.	16a\	16cc\	.
.	.	16e/JJ	.	16cc/JJ	.	.	.	.	.	.	.	.	16g\JJ	16b\JJ	.
!	!	!	!	!LO:TX:a:t=P:problem:mixed beam	!	!	!	!	!	!	!	!	!	!	!
8D/L	.	8f#/L	.	8dd\L	.	.	.	.	.	.	.	.	4d/	4a\	.
8D/	.	8f#/	.	8.d/J	.	.	.	.	.	.	.	.	.	.	.
8C#X/	.	8e/	.	.	.	.	.	.	.	.	.	.	4r	4r	.
.	.	.	.	16a\LL	.	.	.	.	.	.	.	.	.	.	.
8C#/J	.	8e/J	.	16b\	.	.	.	.	.	.	.	.	.	.	.
.	.	.	.	16cc#X\JJ	.	.	.	.	.	.	.	.	.	.	.
=3	=3	=3	=3	=3	=3	=3	=3	=3	=3	=3	=3	=3	=3	=3	=3
!	!	!	!	!LO:TX:a:t=P:problem:mixed beam	!	!	!	!	!	!	!	!	!	!	!
8BB/L	.	8f#/L	.	8dd\L	.	.	.	.	.	.	.	.	00r	1r	.
8BB/	.	8d/J	.	8.d/J	.	.	.	.	.	.	.	.	.	.	.
8AA/	.	16e/LL	.	.	.	.	.	.	.	.	.	.	.	.	.
.	.	16c#X/	.	16a\LL	.	.	.	.	.	.	.	.	.	.	.
8AA/J	.	16d/	.	16b\	.	.	.	.	.	.	.	.	.	.	.
.	.	16g/JJ	.	16cc\JJ	.	.	.	.	.	.	.	.	.	.	.
!	!	!	!	!LO:TX:a:t=P:problem:mixed beam	!	!	!	!	!	!	!	!	!	!	!
8GG/L	.	8b/L	.	16dd\LL	.	.	.	.	.	.	.	.	.	.	.
.	.	.	.	16d/JJ	.	.	.	.	.	.	.	.	.	.	.
!	!	!	!	!LO:TX:a:t=P:problem:triola nieoznaczona	!	!	!	!	!	!	!	!	!	!	!
*	*	*	*	*Xtuplet	*	*	*	*	*	*	*	*	*	*	*
!	!	!	!	!LO:TX:a:t=P:problem:klamra łukowa	!	!	!	!	!	!	!	!	!	!	!
8EE/	.	8d/J	.	24g/LL	.	.	.	.	.	.	.	.	.	.	.
.	.	.	.	24f#/	.	.	.	.	.	.	.	.	.	.	.
.	.	.	.	24e/JJ	.	.	.	.	.	.	.	.	.	.	.
.	.	.	.	8qqf#/	.	.	.	.	.	.	.	.	.	.	.
8AA/	.	8d/L	.	4e/	.	.	.	.	.	.	.	.	.	.	.
8AA/J	.	8c#X/J	.	.	.	.	.	.	.	.	.	.	.	.	.
=4	=4	=4	=4	=4	=4	=4	=4	=4	=4	=4	=4	=4	=4	=4	=4
!LO:TX:a:t=P:problem:mixed beam	!	!	!	!	!	!	!	!	!	!	!	!	!	!	!
8DD/L	.	8d/L	.	4.d/	.	.	.	.	.	.	.	.	.	4r	.
!LO:TX:a:t=P:problem:8\right	!	!	!	!	!	!	!	!	!	!	!	!	!	!	!
8D\	.	8f#/	.	.	.	.	.	.	.	.	.	.	.	.	.
8BB\	.	8g/	.	.	.	.	.	.	.	.	.	.	.	8r	.
8GG\J	.	8b/J	.	8dd\	.	.	.	.	.	.	.	.	.	8G/	.
!	!	!	!	!	!	!	!	!	!	!	!	!	!	!	!LO:DY:t=Pia
!	!	!LO:TX:a:t=P:problem:16\right	!	!	!	!	!	!	!	!	!	!	!	!	!LO:DY:a
2r	.	(16cc\KL	.	(16ee\KL	.	.	.	.	.	.	.	.	.	8G/L	p
.	.	8b\	.	8dd\	.	.	.	.	.	.	.	.	.	.	.
.	.	.	.	.	.	.	.	.	.	.	.	.	.	8G/	.
!	!	!	!	!LO:LB:g=original	!	!	!	!	!	!	!	!	!	!	!
.	.	16a\Jk)	.	16cc\Jk)	.	.	.	.	.	.	.	.	.	.	.
.	.	(16a\KL	.	(16cc\KL	.	.	.	.	.	.	.	.	.	8G/	.
.	.	8b\	.	8dd\	.	.	.	.	.	.	.	.	.	.	.
.	.	.	.	.	.	.	.	.	.	.	.	.	.	8G/J	.
.	.	16cc\Jk)	.	16ee\Jk)	.	.	.	.	.	.	.	.	.	.	.
!	!	!LO:LB:g=original	!	!	!	!	!	!	!	!	!	!	!	!	!
=5	=5	=5	=5	=5	=5	=5	=5	=5	=5	=5	=5	=5	=5	=5	=5
4G\	.	(16b\KL	.	(16dd\KL	00r	.	00r	.	00r	.	00r	.	.	8G/L	.
.	.	8a\	.	8cc\	.	.	.	.	.	.	.	.	.	.	.
.	.	.	.	.	.	.	.	.	.	.	.	.	.	8G/	.
.	.	16g\Jk)	.	16b\Jk)	.	.	.	.	.	.	.	.	.	.	.
4r	.	(16g\KL	.	(16b\KL	.	.	.	.	.	.	.	.	.	8G/	.
.	.	8a\	.	8cc\	.	.	.	.	.	.	.	.	.	.	.
.	.	.	.	.	.	.	.	.	.	.	.	.	.	8G/J	.
.	.	16b\Jk)	.	16dd\Jk)	.	.	.	.	.	.	.	.	.	.	.
8r	.	8cc\	.	8ee\	.	.	.	.	.	.	.	.	.	8G/L	.
!LO:TX:a:t=P:problem:8\right	!	!	!	!LO:TX:a:t=P:problem:4\right	!	!	!	!	!	!	!	!	!	!	!
8G\L	.	4b\	.	4dd\	.	.	.	.	.	.	.	.	.	8G/	.
8B\	.	.	.	.	.	.	.	.	.	.	.	.	.	8G/	.
8G\J	.	8B/	.	8d/	.	.	.	.	.	.	.	.	.	8G/J	.
=6	=6	=6	=6	=6	=6	=6	=6	=6	=6	=6	=6	=6	=6	=6	=6
2r	.	(16c/KL	.	(16e/KL	.	.	.	.	.	.	.	.	.	8G/L	.
.	.	8B/	.	8d/	.	.	.	.	.	.	.	.	.	.	.
.	.	.	.	.	.	.	.	.	.	.	.	.	.	8G/	.
.	.	16A/Jk)	.	16c/Jk)	.	.	.	.	.	.	.	.	.	.	.
.	.	16A/KL	.	(16c/KL	.	.	.	.	.	.	.	.	.	8G/	.
.	.	8B/	.	8d/	.	.	.	.	.	.	.	.	.	.	.
.	.	.	.	.	.	.	.	.	.	.	.	.	.	8G/J	.
.	.	16c/Jk	.	16e/Jk)	.	.	.	.	.	.	.	.	.	.	.
4G\	.	16B/KL	.	(>16d/KL	.	.	.	.	.	.	.	.	.	8G/L	.
.	.	8A/	.	8c/	.	.	.	.	.	.	.	.	.	.	.
.	.	.	.	.	.	.	.	.	.	.	.	.	.	8G/	.
.	.	16G/Jk	.	16B/Jk)	.	.	.	.	.	.	.	.	.	.	.
4r	.	16G/KL	.	(>16B/KL	.	.	.	.	.	.	.	.	.	8G/	.
.	.	8A/	.	8c/	.	.	.	.	.	.	.	.	.	.	.
.	.	.	.	.	.	.	.	.	.	.	.	.	.	8G/J	.
.	.	16B/Jk	.	16d/Jk)	.	.	.	.	.	.	.	.	.	.	.
!	!	!	!	!	!	!	!	!	!	!	!	!	!	!LO:LB:g=original	!
=7	=7	=7	=7	=7	=7	=7	=7	=7	=7	=7	=7	=7	=7	=7	=7
8r	.	8c/	.	8e/	.	.	.	.	.	.	.	.	1r	8G/L	.
8G\L	.	4B/	.	4d/	.	.	.	.	.	.	.	.	.	8G/J	.
8B\	.	.	.	.	.	.	.	.	.	.	.	.	.	4r	.
8G\J	.	8b\	.	8dd\	.	.	.	.	.	.	.	.	.	.	.
4C/	.	16cc\LL	.	16ee\LL	.	.	.	.	.	.	.	.	.	2r	.
.	.	16b\	.	16dd\	.	.	.	.	.	.	.	.	.	.	.
.	.	16a\	.	16cc\	.	.	.	.	.	.	.	.	.	.	.
.	.	16g\JJ	.	16b\JJ	.	.	.	.	.	.	.	.	.	.	.
4r	.	16cc\LL	.	16a/LL	.	.	.	.	.	.	.	.	.	.	.
.	.	16b\	.	16g/	.	.	.	.	.	.	.	.	.	.	.
.	.	16a\	.	16f#/	.	.	.	.	.	.	.	.	.	.	.
.	.	16g\JJ	.	16e/JJ	.	.	.	.	.	.	.	.	.	.	.
!LO:LB:g=original	!	!	!	!LO:LB:g=original	!	!	!	!	!	!	!	!	!	!	!
=8	=8	=8	=8	=8	=8	=8	=8	=8	=8	=8	=8	=8	=8	=8	=8
8r	.	8f#/	.	8d/	.	.	.	.	.	.	.	.	4r	4r	.
8D\L	.	4aa\	.	4ccc\	.	.	.	.	.	.	.	.	.	.	.
8F#\	.	.	.	.	.	.	.	.	.	.	.	.	8r	8r	.
8A\J	.	16gg\LL	.	16bb\LL	.	.	.	.	.	.	.	.	8a\	8cc\	.
.	.	16ff#\JJ	.	16aa\JJ	.	.	.	.	.	.	.	.	.	.	.
8G\L	.	8gg\L	.	8bb\L	.	.	.	.	.	.	.	.	16b\LL	16b\LL	.
.	.	.	.	.	.	.	.	.	.	.	.	.	16g\	16cc\	.
8E\	.	8b\J	.	16aa\L	.	.	.	.	.	.	.	.	16b\	16dd\	.
.	.	.	.	16gg\JJ	.	.	.	.	.	.	.	.	16cc\JJ	16ee\JJ	.
8C\	.	8ee\L	.	8aa\L	.	.	.	.	.	.	.	.	8g\L	8b\L	.
8D\J	.	16dd\L	.	8ff#\J	.	.	.	.	.	.	.	.	8d\J	16a\L	.
.	.	16cc\JJ	.	.	.	.	.	.	.	.	.	.	.	16g\JJ	.
!	!	!LO:LB:g=original	!	!	!	!	!	!	!	!	!	!	!	!	!
=9	=9	=9	=9	=9	=9	=9	=9	=9	=9	=9	=9	=9	=9	=9	=9
!LO:TX:a:t=P:problem:mixed beam	!	!	!	!LO:TX:a:t=P:problem:mixed beam	!	!	!	!	!	!	!	!	!	!	!
8E\L	.	8b/L	.	16gg\LL	00r	.	00r	.	00r	.	2r	.	8B/L	16g\LL	.
.	.	.	.	16g/JJ	.	.	.	.	.	.	.	.	.	16b\	.
!	!	!	!	!LO:TX:a:t=P:problem:32\right	!	!	!	!	!	!	!	!	!	!	!
8C\	.	8e/	.	(32cc\LLL	.	.	.	.	.	.	.	.	8G/J	16cc\	.
.	.	.	.	32b\J	.	.	.	.	.	.	.	.	.	.	.
.	.	.	.	16a\JJ)	.	.	.	.	.	.	.	.	.	16a\JJ	.
.	.	.	.	8qqb/	.	.	.	.	.	.	.	.	.	8qqb/	.
8D\	.	8d/	.	4a/	.	.	.	.	.	.	.	.	4d/	4aT\	.
8DD/J	.	8c/J	.	.	.	.	.	.	.	.	.	.	.	.	.
4GG/	.	4B/	.	4g/	.	.	.	.	.	.	4r	.	4B/	4g\	.
4r	.	4r	.	4r	.	.	.	.	.	.	16g\LL	In	4r	4r	.
.	.	.	.	.	.	.	.	.	.	.	16a\	.	.	.	.
.	.	.	.	.	.	.	.	.	.	.	16b\	.	.	.	.
.	.	.	.	.	.	.	.	.	.	.	16cc\JJ	.	.	.	.
=10	=10	=10	=10	=10	=10	=10	=10	=10	=10	=10	=10	=10	=10	=10	=10
!	!	!	!	!	!	!	!	!	!	!	!	!	!LO:TX:a:t=10	!	!
16D\LL	.	1r	.	1r	.	.	.	.	.	.	8dd\	om-	00r	1r	.
16E\	.	.	.	.	.	.	.	.	.	.	.	.	.	.	.
!	!	!	!	!	!	!	!	!	!	!	!LO:TX:a:t=P:problem:oddechy=rozdzielacze słów:global	!	!	!	!
16F#\	.	.	.	.	.	.	.	.	.	.	8dd,\	-nem	.	.	.
16G\JJ	.	.	.	.	.	.	.	.	.	.	.	.	.	.	.
8A\L	.	.	.	.	.	.	.	.	.	.	8cc\	om-	.	.	.
8F#\J	.	.	.	.	.	.	.	.	.	.	16dd\LL	-nem	.	.	.
.	.	.	.	.	.	.	.	.	.	.	16cc,\JJ	.	.	.	.
8G\L	.	.	.	.	.	.	.	.	.	.	8b\	{om-	.	.	.
8E\	.	.	.	.	.	.	.	.	.	.	8a,\	-nem}	.	.	.
8G\	.	.	.	.	.	.	.	.	.	.	8b\	ter-	.	.	.
8E\J	.	.	.	.	.	.	.	.	.	.	8cc#X\	-ram	.	.	.
=11	=11	=11	=11	=11	=11	=11	=11	=11	=11	=11	=11	=11	=11	=11	=11
!LO:TX:a:t=P:problem:mixed beam	!	!	!	!	!	!	!	!	!	!	!	!	!	!	!
8F#\L	.	2r	.	2r	.	.	.	.	.	.	8dd\	om-	.	2r	.
8G\	.	.	.	.	.	.	.	.	.	.	16ee\LL	-nem	.	.	.
.	.	.	.	.	.	.	.	.	.	.	16b\JJ	.	.	.	.
.	.	.	.	.	.	.	.	.	.	.	8qqee/	.	.	.	.
8A\	.	.	.	.	.	.	.	.	.	.	(8.cc#X\L	ter-	.	.	.
8AA/J	.	.	.	.	.	.	.	.	.	.	.	.	.	.	.
.	.	.	.	.	.	.	.	.	.	.	16cc#\Jk)	.	.	.	.
!LO:TX:a:t=P:problem:mixed beam	!	!	!	!	!	!	!	!	!	!	!	!	!	!	!
8D/L	.	4r	.	4r	.	.	.	.	.	.	4dd,\	-ram	.	4r	.
8d\	.	.	.	.	.	.	.	.	.	.	.	.	.	.	.
!	!	!	!	!	!	!	!	!	!	!	!	!	!	!	!LO:DY:t=P&colon;
!	!	!	!	!	!	!	!	!	!	!	!LO:SIC:t=custos:f	!	!	!	!LO:DY:a
8B\	.	8r	.	8r	.	.	.	.	.	.	8dd\	om-	.	8r	p
!	!	!	!	!	!	!	!	!	!	!	!LO:LB:g=original	!	!	!	!
8G\J	.	8b\	.	8dd\	.	.	.	.	.	.	8dd\	-nem	.	8G/	.
=12	=12	=12	=12	=12	=12	=12	=12	=12	=12	=12	=12	=12	=12	=12	=12
2r	.	(16cc\KL	.	(16ee\KL	.	.	.	.	.	.	16ee\KL	o-	.	8G/L	.
.	.	8b\	.	8dd\	.	.	.	.	.	.	8dd\	.	.	.	.
.	.	.	.	.	.	.	.	.	.	.	.	.	.	8G/	.
.	.	16a\Jk)	.	16cc\Jk)	.	.	.	.	.	.	16cc\Jk	.	.	.	.
.	.	(16a\KL	.	(16cc\KL	.	.	.	.	.	.	16cc\KL	.	.	8G/	.
.	.	8b\	.	8dd\	.	.	.	.	.	.	8dd\	.	.	.	.
.	.	.	.	.	.	.	.	.	.	.	.	.	.	8G/J	.
.	.	16cc\Jk)	.	16ee\Jk)	.	.	.	.	.	.	16ee\Jk	.	.	.	.
4G\	.	(16b\KL	.	(16dd\KL	.	.	.	.	.	.	16dd\KL	.	.	8G/L	.
.	.	8a\	.	8cc\	.	.	.	.	.	.	8cc\	.	.	.	.
.	.	.	.	.	.	.	.	.	.	.	.	.	.	8G/	.
.	.	16g\Jk)	.	16b\Jk)	.	.	.	.	.	.	16b\Jk	.	.	.	.
8r	.	(16g\KL	.	(16b\KL	.	.	.	.	.	.	16b\KL	.	.	8G/	.
.	.	8a\	.	8cc\	.	.	.	.	.	.	8cc\	.	.	.	.
8GG/	.	.	.	.	.	.	.	.	.	.	.	.	.	8G/J	.
.	.	16b\Jk)	.	16dd\Jk)	.	.	.	.	.	.	16dd\Jk	.	.	.	.
=13	=13	=13	=13	=13	=13	=13	=13	=13	=13	=13	=13	=13	=13	=13	=13
8C/L	.	8cc\L	.	8ee\L	00r	.	00r	.	00r	.	16ee\LL	.	.	8G/L	.
.	.	.	.	.	.	.	.	.	.	.	16ff#\	.	.	.	.
8BB/	.	8b\J	.	8dd\J	.	.	.	.	.	.	16dd\	.	.	8G/J	.
.	.	.	.	.	.	.	.	.	.	.	16ee\JJ	.	.	.	.
!	!	!	!	!LO:SIC:t=custos:a	!	!	!	!	!	!	!	!	!	!	!
8AA/	.	4r	.	4r	.	.	.	.	.	.	16cc\LL	.	.	4r	.
.	.	.	.	.	.	.	.	.	.	.	16dd\	.	.	.	.
8GG/J	.	.	.	.	.	.	.	.	.	.	16b\	.	.	.	.
.	.	.	.	.	.	.	.	.	.	.	16cc\JJ	.	.	.	.
!LO:TX:a:t=P:problem:mixed beam	!	!	!	!LO:LB:g=original	!	!	!	!	!	!	!	!	!	!	!
8D\L	.	4r	.	4r	.	.	.	.	.	.	8a\	-m	.	4r	.
8DD/J	.	.	.	.	.	.	.	.	.	.	8d/	-nem,	.	.	.
!LO:LB:g=original	!	!	!	!	!	!	!	!	!	!	!	!	!	!	!LO:DY:t=Po
!	!	!	!	!	!	!	!	!	!	!	!	!	!	!	!LO:DY:a
8r	.	8a\L	.	8ff#\L	.	.	.	.	.	.	8a\	om-	.	(8d'/L	p
8G\	.	8b\J	.	8gg\J	.	.	.	.	.	.	8b\	-nem	.	8d'/J)	.
!	!	!	!	!	!	!	!	!	!	!	!	!	!	!LO:LB:g=original	!
=14	=14	=14	=14	=14	=14	=14	=14	=14	=14	=14	=14	=14	=14	=14	=14
8D/L	.	16cc\LL	.	16aa\LL	.	.	.	.	.	.	16cc\LL	ter-	00r	(8d'/L	.
.	.	16a\J	.	16ff#\J	.	.	.	.	.	.	16a\JJ	.	.	.	.
8GG/J	.	8b\J	.	8gg\J	.	.	.	.	.	.	8b,\	-ram	.	8d'/	.
8r	.	8f#/L	.	8a/L	.	.	.	.	.	.	8a\	om-	.	8d'/	.
8GG/	.	8g/J	.	8b/J	.	.	.	.	.	.	8b,\	-nem	.	8d'/J)	.
8D\L	.	8a/L	.	16cc\LL	.	.	.	.	.	.	16cc\LL	{om-	.	8d'/L	.
.	.	.	.	16a\J	.	.	.	.	.	.	16a\JJ	.	.	.	.
8G\	.	16f#/L	.	8b\J	.	.	.	.	.	.	8b\	-nem}	.	8d'/J	.
.	.	16g/JJ	.	.	.	.	.	.	.	.	.	.	.	.	.
!	!	!	!	!	!	!	!	!	!	!	!LO:LB:g=original	!	!	!	!
8F#\	.	4r	.	4r	.	.	.	.	.	.	8dd\	om-	.	4r	.
8D\J	.	.	.	.	.	.	.	.	.	.	8cc\	-nem	.	.	.
=15	=15	=15	=15	=15	=15	=15	=15	=15	=15	=15	=15	=15	=15	=15	=15
!LO:TX:a:t=P:problem:mixed beam	!	!	!	!	!	!	!	!	!	!	!	!	!	!	!
8G\L	.	2r	.	2r	.	.	.	.	.	.	8b\	ter-	.	2r	.
8C/	.	.	.	.	.	.	.	.	.	.	16a\	-ram,	.	.	.
.	.	.	.	.	.	.	.	.	.	.	16g\	e-	.	.	.
8D/	.	.	.	.	.	.	.	.	.	.	(8f#/L	-xi-	.	.	.
8GG/J	.	.	.	.	.	.	.	.	.	.	16g/L	.	.	.	.
.	.	.	.	.	.	.	.	.	.	.	32f#/L	.	.	.	.
.	.	.	.	.	.	.	.	.	.	.	32g/JJJ)	.	.	.	.
4D\	.	8r	.	8r	.	.	.	.	.	.	4a\	-vit	.	4r	.
.	.	16f#/LL	.	16dd\LL	.	.	.	.	.	.	.	.	.	.	.
.	.	16g/JJ	.	16ee\JJ	.	.	.	.	.	.	.	.	.	.	.
!	!	!LO:LB:g=original	!	!	!	!	!	!	!	!	!	!	!	!	!
8r	.	8a/L	.	8ff#\L	.	.	.	.	.	.	8a\	So-	.	8d/L	.
8GG/	.	8b/J	.	8gg\J	.	.	.	.	.	.	8b\	-nus	.	8d/J	.
=16	=16	=16	=16	=16	=16	=16	=16	=16	=16	=16	=16	=16	=16	=16	=16
8D\L	.	16cc\LL	.	16aa\LL	.	.	.	.	.	.	16cc\LL	{So-	.	(8d'/L	.
.	.	16a\	.	16ff#\	.	.	.	.	.	.	16a\JJ	.	.	.	.
8G\J	.	16b\	.	16gg\	.	.	.	.	.	.	16b\LL	-nus}	.	8d'/	.
.	.	16g\JJ	.	16b\JJ	.	.	.	.	.	.	16g,\JJ	.	.	.	.
8r	.	8f#/L	.	8a\L	.	.	.	.	.	.	8a\	So-	.	8d'/	.
8GG/	.	8g/J	.	8b\J	.	.	.	.	.	.	8b,\	-nus	.	8d'/J)	.
8D\L	.	8a/L	.	16cc\LL	.	.	.	.	.	.	16cc\LL	{So-	.	(8d'/L	.
.	.	.	.	16a\J	.	.	.	.	.	.	16a\JJ	.	.	.	.
!	!	!	!	!	!	!	!	!	!	!	!LO:N:vis=8	!	!	!	!
8G\	.	16f#/L	.	8b\J	.	.	.	.	.	.	16b,\	-nus}	.	8d'/J)	.
!	!	!	!	!	!	!	!	!	!	!	!LO:N:vis=8	!	!	!	!
.	.	16g/JJ	.	.	.	.	.	.	.	.	16g/	.	.	.	.
8F#\	.	4r	.	4r	.	.	.	.	.	.	16dd\LL	So-	.	4r	.
.	.	.	.	.	.	.	.	.	.	.	16ee\JJ	.	.	.	.
8D\J	.	.	.	.	.	.	.	.	.	.	16dd\LL	-nus	.	.	.
.	.	.	.	.	.	.	.	.	.	.	16cc\JJ	.	.	.	.
=17	=17	=17	=17	=17	=17	=17	=17	=17	=17	=17	=17	=17	=17	=17	=17
!LO:TX:a:t=P:problem:mixed beam	!	!	!	!	!	!	!	!	!	!	!	!	!	!	!
8G\L	.	2r	.	2r	0r	.	0r	.	0r	.	8b\	e-	.	2r	.
8C\	.	.	.	.	.	.	.	.	.	.	16a\LL	.	.	.	.
.	.	.	.	.	.	.	.	.	.	.	16g\JJ	.	.	.	.
!	!	!	!	!	!	!	!	!	!	!	!LO:LB:g=original	!	!	!	!
8D\	.	.	.	.	.	.	.	.	.	.	4f#X/	-o-	.	.	.
8DD/J	.	.	.	.	.	.	.	.	.	.	.	.	.	.	.
!LO:TX:a:t=P:problem:mixed beam	!	!	!	!	!	!	!	!	!	!	!	!	!	!	!
8GG/L	.	8r	.	8r	.	.	.	.	.	.	4g/	-rum	.	8r	.
!	!	!	!LO:DY:t=for&colon;	!	!	!	!	!	!	!	!	!	!	!	!
!	!	!	!LO:DY:a	!	!	!	!	!	!	!	!	!	!	!	!
8G\	.	16g/LL	f	16b\LL	.	.	.	.	.	.	.	.	.	16b\LL	.
.	.	16a/JJ	.	16cc\JJ	.	.	.	.	.	.	.	.	.	16cc\JJ	.
8B\	.	16b/LL	.	16dd\LL	.	.	.	.	.	.	4r	.	.	8dd\L	.
.	.	16d/	.	16g\	.	.	.	.	.	.	.	.	.	.	.
8G\J	.	16g/	.	16b\	.	.	.	.	.	.	.	.	.	8b\J	.
.	.	16b/JJ	.	16dd\JJ	.	.	.	.	.	.	.	.	.	.	.
=18	=18	=18	=18	=18	=18	=18	=18	=18	=18	=18	=18	=18	=18	=18	=18
4C/	.	8g/L	.	16ee\LL	.	.	.	.	.	.	0r	.	0r	16ee\LL	.
.	.	.	.	16dd\	.	.	.	.	.	.	.	.	.	16dd\	.
.	.	16a/L	.	16cc\	.	.	.	.	.	.	.	.	.	16cc\	.
.	.	16g/JJ	.	16b\JJ	.	.	.	.	.	.	.	.	.	16b\JJ	.
4r	.	16cc\LL	.	16a/LL	.	.	.	.	.	.	.	.	.	16a\LL	.
.	.	16b\	.	16g/	.	.	.	.	.	.	.	.	.	16b\	.
.	.	16a\	.	16f#/	.	.	.	.	.	.	.	.	.	16a\	.
.	.	16g\JJ	.	16e/JJ	.	.	.	.	.	.	.	.	.	16g\JJ	.
8r	.	8f#/	.	8d/	.	.	.	.	.	.	.	.	.	4d/	.
8D\L	.	4aa\	.	4ccc\	.	.	.	.	.	.	.	.	.	.	.
8F#\	.	.	.	.	.	.	.	.	.	.	.	.	.	8r	.
8A\J	.	16gg\LL	.	16bb\LL	.	.	.	.	.	.	.	.	.	8cc\	.
.	.	16ff#\JJ	.	16aa\JJ	.	.	.	.	.	.	.	.	.	.	.
!LO:LB:g=original	!	!	!	!LO:LB:g=original	!	!	!	!	!	!	!	!	!	!	!
=19	=19	=19	=19	=19	=19	=19	=19	=19	=19	=19	=19	=19	=19	=19	=19
8G\L	.	8gg\L	.	8bb\L	1r	.	1r	.	1r	.	.	.	.	16b\LL	.
.	.	.	.	.	.	.	.	.	.	.	.	.	.	16cc\	.
8E\	.	8b\J	.	16aa\L	.	.	.	.	.	.	.	.	.	16dd\	.
.	.	.	.	16gg\JJ	.	.	.	.	.	.	.	.	.	16ee\JJ	.
8C\	.	8ee\L	.	8aa\L	.	.	.	.	.	.	.	.	.	8b\L	.
8D\J	.	16dd\L	.	8ff#\J	.	.	.	.	.	.	.	.	.	16a\L	.
.	.	16cc\JJ	.	.	.	.	.	.	.	.	.	.	.	16g\JJ	.
!LO:TX:a:t=P:problem:mixed beam	!	!LO:TX:a:t=P:problem:mixed beam	!	!LO:TX:a:t=P:problem:mixed beam	!	!	!	!	!	!	!	!	!	!	!
8E\L	.	8cc\L	.	16gg\LL	.	.	.	.	.	.	.	.	.	16g\LL	.
.	.	.	.	16g/JJ	.	.	.	.	.	.	.	.	.	16b\	.
8C\	.	8e/	.	24cc\LL	.	.	.	.	.	.	.	.	.	16cc\	.
.	.	.	.	24b\	.	.	.	.	.	.	.	.	.	.	.
.	.	.	.	.	.	.	.	.	.	.	.	.	.	16a\JJ	.
.	.	.	.	24a\JJ	.	.	.	.	.	.	.	.	.	.	.
.	.	.	.	8qqb/	.	.	.	.	.	.	.	.	.	.	.
!	!	!	!	!	!	!	!	!	!	!	!	!	!	!LO:LB:g=original	!
8D\	.	8d/	.	4aT/	.	.	.	.	.	.	.	.	.	8b\L	.
8DD/J	.	8c/J	.	.	.	.	.	.	.	.	.	.	.	16a\L	.
.	.	.	.	.	.	.	.	.	.	.	.	.	.	16g\JJ	.
=20	=20	=20	=20	=20	=20	=20	=20	=20	=20	=20	=20	=20	=20	=20	=20
!	!	!LO:TX:a:t=P:problem:mixed beam	!	!LO:TX:a:t=P:problem:mixed beam	!	!	!	!	!	!	!	!	!	!	!
4GG/	.	8B/L	.	8g/L	4r	.	4r	.	4r	.	4r	.	4r	4g\	.
.	.	8b\J	.	8dd\J	.	.	.	.	.	.	.	.	.	.	.
!LO:TX:a:t=Tutti	!	!	!	!	!LO:TX:a:t=P:problem:8\right	!	!LO:TX:a:t=P:problem:8\right	!	!LO:TX:a:t=P:problem:8\right	!	!	!	!	!	!
8G\L	.	16b\LL	.	16gg\LL	8G\	Om-	8d\	Om-	8g\	Om-	8b\	om-	8g\L	8b\L	.
.	.	16dd\	.	16dd\	.	.	.	.	.	.	.	.	.	.	.
!	!	!	!	!	!	!	!	!	!	!	!	!	!LO:SIC:t=custos:f	!	!
8G\J	.	16b\	.	16b\	8G\	-nem	8B\	-nem	8b\	-nem	8dd\	-nem	8b\J	8dd\J	.
.	.	16g\JJ	.	16g\JJ	.	.	.	.	.	.	.	.	.	.	.
!	!	!	!	!	!	!	!	!	!	!	!	!	!LO:LB:g=original	!	!
!LO:TX:a:t=P:problem:mixed beam	!	!	!	!	!LO:TX:a:t=P:problem:mixed beam	!	!	!	!	!	!	!	!LO:TX:a:t=P:problem:mixed beam	!	!
8G\L	.	8b\L	.	8dd\L	(>8G\L	ter-	8d\L	ter-	8g\	ter-	8b\	ter-	8g\L	8b\L	.
8GG/	.	8dd\J	.	8gg\J	8GG/J)	.	8d\J	-ram	8d\	-ram,	8g\	-ram	8B/	8g\	.
!	!	!LO:LB:g=original	!	!	!	!	!	!	!	!	!	!	!	!	!
8G\	.	8b\L	.	16gg\LL	8G\	-ram,	8d\	e-	8g\	e-	8b\	e-	8g\	8b\	.
.	.	.	.	16aa\	.	.	.	.	.	.	.	.	.	.	.
8D\J	.	8dd\J	.	16ff#\	8D/	e-	8f#\	-xi-	8a\	-xi-	8dd\	-xi-	8a\J	8dd\J	.
.	.	.	.	16aa\JJ	.	.	.	.	.	.	.	.	.	.	.
=21	=21	=21	=21	=21	=21	=21	=21	=21	=21	=21	=21	=21	=21	=21	=21
!LO:TX:a:t=P:problem:mixed beam	!	!	!	!	!	!	!LO:TX:a:t=P:problem:oddechy=rozdzielacze słów:global	!	!	!	!	!	!LO:TX:a:t=P:problem:mixed beam	!	!
8G\L	.	16dd\LL	.	16bb\LL	8G\	-xi-	8d,\	-vit	8g\	-vit,	8b\	-vit	8g\L	8b\L	.
.	.	16gg\	.	16gg\	.	.	.	.	.	.	.	.	.	.	.
!	!	!	!	!	!LO:TX:a:t=P:problem:oddechy=rozdzielacze słów:global	!	!	!	!	!	!	!	!	!	!
8GG/	.	16dd\	.	16dd\	8GG,/	-vit	8d\	So-	8d\	So-	8g\	So-	8B/	8g\	.
.	.	16b\JJ	.	16b\JJ	.	.	.	.	.	.	.	.	.	.	.
!	!	!	!	!LO:TX:a:t=P:problem:mixed beam	!	!	!	!	!	!	!	!	!	!	!
8G\	.	8g/L	.	8g/L	8G\	So-	8d\	-nus	8g\	-nus	8b\	-nus	8g\	8b\	.
8F#\J	.	16a/L	.	8dd\J	8F#,\	-nus	8A/	e-	8a\	e-	8dd\	e-	8a\J	8dd\J	.
.	.	16b/JJ	.	.	.	.	.	.	.	.	.	.	.	.	.
8E\L	6|	8cc#X\L	.	8gg\L	8E\	e-	8e\	-o-	8g\	-o-	8cc#X\	-o-	8g\L	8cc#X\L	.
!	!	!	!	!	!	!	!	!	!LO:TX:a:t=P:problem:16\right:global	!	!	!	!	!	!
8D\	.	8ff#\	.	8aa\J	8D\	-o-	8f#\	-rum	16f#\LL	-rum	8dd\	-rum	8a\J	8dd\	.
!	!	!	!	!	!	!	!	!	!LO:TX:a:t=P:problem:oddechy=rozdzielacze słów:global	!	!	!	!	!	!
.	.	.	.	.	.	.	.	.	16g,\JJ	.	.	.	.	.	.
8C#X\	.	8ee\	.	8aa\L	8C#X,/	-rum	8e\	e-	8.a\	e-	8ee\	e-	8a\L	8ee\	.
8D\J	.	8dd\J	.	16gg\L	8D/	e-	8d\	-xi-	.	.	8ff#\	-xi-	16a\L	8dd\J	.
.	.	.	.	16ff#\JJ	.	.	.	.	16a\	-xi-	.	.	16a\JJ	.	.
!	!	!	!	!	!LO:LB:g=original	!	!	!	!	!	!	!	!	!	!
=22	=22	=22	=22	=22	=22	=22	=22	=22	=22	=22	=22	=22	=22	=22	=22
4AA/	.	16cc#X\LL	.	16ee\LL	8AA/	-xi-	8c#X\	-vit	8a\	-vit,	8ee,\	-vit	4a\	(8cc#X'\L	.
.	.	16a\	.	16cc#X\	.	.	.	.	.	.	.	.	.	.	.
.	.	16e\	.	16a\	4A,\	-vit	4A/	So-	4e\	So-	4cc#X\	So-	.	8a'\	.
.	.	16a\JJ	.	16cc#\JJ	.	.	.	.	.	.	.	.	.	.	.
8r	.	8cc#X\L	.	8ee\L	.	.	.	.	.	.	.	.	4r	8a'\	.
8D/L	.	8dd\J	.	16ff#\L	8A\	So-	8A/	-nus,	8f#\	-n(us)	8dd\	-nus,	.	8a'\J)	.
.	.	.	.	16dd\JJ	.	.	.	.	.	.	.	.	.	.	.
!	!	!	!	!	!	!	!LO:LB:g=original	!	!	!	!	!	!	!	!
8AA/	.	16ee\LL	.	16gg\LL	8A\	-nus	8A/	{So-	16g\LL	So-	16ee\LL	So-	4a\	(8a'\L	.
!	!	!	!	!	!	!	!	!	!LO:SIC:t=custos:B	!	!	!	!	!	!
.	.	16cc#X\	.	16ee\	.	.	.	.	16e\JJ	.	16cc#X\JJ	.	.	.	.
!	!	!	!	!	!	!	!	!	!LO:LB:g=original	!	!LO:LB:g=original	!	!	!	!
8D/J	.	16dd\	.	16ff#\	8D\	So-	8A/	-nus}	16f#\LL	-nus	8dd,\	-nus	.	8a'\	.
!	!	!	!	!LO:SIC:t=custos:a	!	!	!	!	!	!	!	!	!	!	!
.	.	16a\JJ	.	16dd\JJ	.	.	.	.	16d,\JJ	.	.	.	.	.	.
!	!	!	!	!LO:LB:g=original	!	!	!	!	!	!	!	!	!	!	!
8r	.	8c#X/L	.	8e/L	8E\	-nus	8c#X\	{So-	8a\	{So-	8cc#X\	So-	4r	8a'\	.
8D\	.	8d/J	.	16f#/L	8F#\	.	8d\	-nus}	8a\	-nus}	8a\	-nus	.	8a'\J)	.
.	.	.	.	16d/JJ	.	.	.	.	.	.	.	.	.	.	.
=23	=23	=23	=23	=23	=23	=23	=23	=23	=23	=23	=23	=23	=23	=23	=23
!LO:TX:a:t=P:problem:mixed beam	!	!	!	!	!LO:TX:a:t=P:problem:16\right	!	!LO:TX:a:t=P:problem:16\right	!	!	!	!	!	!	!	!
8AA/L	.	8e/L	.	16g/LL	16G\LL	{So-	16e\LL	{So-	8a\	{So-	8a\	{So-	4a\	(8a'\L	.
.	.	.	.	16e/	16E\JJ	.	16c#X\JJ	.	.	.	.	.	.	.	.
8D/	.	16c#X/L	.	16f#/	8F#\	-nus}	8d\	-nus}	8a\	-nus}	8a,\	-nus}	.	8a'\J)	.
.	.	16d/JJ	.	16d/JJ	.	.	.	.	.	.	.	.	.	.	.
8G\	.	8d/L	.	16b\LL	8G\	{So-	8d\	{So-	8g\	{So-	8b\	{So-	8r	8r	.
.	.	.	.	16dd\	.	.	.	.	.	.	.	.	.	.	.
8F#\J	.	8d/J	.	16a\	8F#\	-nus}	8A\	-nus}	8a,\	-nus}	8dd,\	-nus}	8a\	8dd\	.
.	.	.	.	16dd\JJ	.	.	.	.	.	.	.	.	.	.	.
!LO:TX:a:t=P:problem:mixed beam	!	!	!	!	!	!	!	!	!	!	!	!	!	!	!
8E\L	6|	16g\LL	.	16cc#X\LL	8E\	{So-	8c#X\	e-	8g\	e-	8cc#X\	e-	8g\L	8cc#X\	.
.	.	16cc#X\	.	16aa\	.	.	.	.	.	.	.	.	.	.	.
8D\	.	16ff#\	.	16aa\	16D\	-nus}	16A\	-o-	16f#\	-o-	16dd\	-o-	8a\J	4dd\	.
.	.	16a\JJ	.	16dd\JJ	16D\	e-	16d\	-rum	16g\	-rum	16ee\	-rum	.	.	.
!	!	!	!	!	!LO:TX:a:t=P:problem:mixed beam	!	!	!	!LO:TX:a:t=P:problem:4\right	!	!	!	!	!	!
8A\	4	16a/LL	.	16dd\LL	8A\L	-o-	(8d\L	So-	4a\	So-	8ff#\L	So-	8a\L	.	.
.	.	16g/	.	16ee\	.	.	.	.	.	.	.	.	.	.	.
8AA/J	3#	16f#/	.	16a\	8AA/J	.	8c#X\J)	.	.	.	16ee\L	.	16a\L	16ee\LL	.
.	.	16e/JJ	.	16cc#X\JJ	.	.	.	.	.	.	16dd\JJ	.	16a\JJ	16cc#X\JJ	.
!LO:LB:g=original	!	!	!	!	!	!	!	!	!	!	!	!	!	!	!
=24	=24	=24	=24	=24	=24	=24	=24	=24	=24	=24	=24	=24	=24	=24	=24
4D/	.	16f#/LL	.	16dd\LL	4D,/	-rum,	4d,\	-nus	4a\	-nus	4dd,\	-nus	4a\	(8dd'\L	.
.	.	16d/	.	16a\	.	.	.	.	.	.	.	.	.	.	.
.	.	16f#/	.	16dd\	.	.	.	.	.	.	.	.	.	8a'\	.
.	.	16a/JJ	.	16ff#\JJ	.	.	.	.	.	.	.	.	.	.	.
8r	.	8cc#X\L	.	8ee\L	8A\	Con-	8e\	Con-	8e\	Con-	8cc#X\	Con-	4r	8a'\	.
8D\L	.	8dd\J	.	8ff#\J	8A\	-ſti-	8A/	-ſti-	8f#\	-ſti-	8dd\	-ſti-	.	8a'\J)	.
8A\	.	16ee\LL	.	16gg\LL	8A\	-tu-	8A/	-tu-	16g\LL	-tu-	16ee\LL	-tu-	4a\	(8a'\L	.
.	.	16cc#X\	.	16ee\	.	.	.	.	16e\JJ	.	16cc#X\JJ	.	.	.	.
8D\J	.	16dd\	.	16ff#\	8D/	-es	8A/	-es	8f#,\	-es	8dd\	-es	.	8a'\	.
.	.	16a\JJ	.	16dd\JJ	.	.	.	.	.	.	.	.	.	.	.
!	!	!LO:LB:g=original	!	!	!	!	!	!	!	!	!	!	!	!	!
8r	.	8c#X/L	.	8e/L	8E/	e-	8c#X\	e-	8a\	e-	8cc#X\	e-	4r	8a'\	.
8D/	.	8d/J	.	8f#/J	8F#\	-os	8d\	-os	8a\	-os	8a,\	-os	.	8a'\J)	.
!	!	!	!	!	!	!	!	!	!	!	!LO:LB:g=original	!	!	!LO:LB:g=original	!
=25	=25	=25	=25	=25	=25	=25	=25	=25	=25	=25	=25	=25	=25	=25	=25
8A\L	#	16e/LL	.	16g/LL	16G\LL	prin-	16e\LL	prin-	8a\	prin-	8.a\	prin-	4a\	8a'\L	.
.	.	16c#X/	.	16e/	16E\JJ	.	16c#X\JJ	.	.	.	.	.	.	.	.
8D\	.	16d/	.	16f#/	8F#\	-ci-	8d\	-ci-	8a\	-ci-	.	.	.	8a'\J	.
.	.	16f#/JJ	.	16d/JJ	.	.	.	.	.	.	16a\	-ci-	.	.	.
8G\	.	8d/L	.	16b\LL	8G,\	-pes	8d,\	-pes	8g\	-pes	8b\	-pes	8r	8r	.
.	.	.	.	16dd\	.	.	.	.	.	.	.	.	.	.	.
8F#\J	6	8d/J	.	16a\	8F#\	Su-	8A/	Su-	8a\	Su-	8dd\	Su-	8a\	8dd\	.
.	.	.	.	16dd\JJ	.	.	.	.	.	.	.	.	.	.	.
!LO:TX:a:t=P:problem:mixed beam	!	!	!	!LO:SIC:s=16cc#	!	!	!	!	!LO:LB:g=original	!	!	!	!	!	!
8E\L	.	16g\LL	.	16cc\LL	8E\	-per	8c#X\	-per	8g\	-per	8cc#X\	-per	8g\L	8cc#X\	.
!	!	!	!	!LO:SIC:s=16aa	!	!	!	!	!	!	!	!	!	!	!
.	.	16cc#X\	.	16gg\	.	.	.	.	.	.	.	.	.	.	.
8D\	.	16ff#\	.	16aa\	16D/	om-	16A\	om-	16f#\	om-	16dd\	om-	8a\J	4dd\	.
.	.	16a\JJ	.	16dd\JJ	16D/	-nem	16d\	-nem	16g\	-nem	16ee\	-nem	.	.	.
!	!	!	!	!	!LO:TX:a:t=P:problem:mixed beam	!	!	!	!	!	!	!	!	!	!
8A\	.	16a/LL	.	16dd\LL	8A\L	ter-	(8d\L	ter-	4a\	ter-	8ff#\L	ter-	8a\L	.	.
.	.	16g/	.	16ee\	.	.	.	.	.	.	.	.	.	.	.
8AA/J	.	16f#/	.	16a\	8AA/J	.	8c#X\J)	.	.	.	16ee\L	.	16a\L	16ee\LL	.
.	.	16e/JJ	.	16cc#X\JJ	.	.	.	.	.	.	16dd\JJ	.	16a\JJ	16cc#X\JJ	.
!	!	!	!	!LO:LB:g=original	!	!	!	!	!	!	!	!	!	!	!
=26	=26	=26	=26	=26	=26	=26	=26	=26	=26	=26	=26	=26	=26	=26	=26
!LO:TX:a:t=P:problem:mixed beam	!	!	!	!	!	!	!	!	!	!	!	!	!	!	!
!LO:TX:a:t=Solo	!	!	!	!LO:TX:a:t=P:problem:mixed beam	!	!	!	!	!	!	!	!	!	!	!
8D/L	.	8f#/L	.	8dd\L	4D\	-ram	4f#\	-ram	4a\	-ram	4dd\	-ram	4a\	4dd\	.
8d\	.	8f#/	.	8.d/J	.	.	.	.	.	.	.	.	.	.	.
8c#X\	.	8e/	.	.	4r	.	4r	.	4r	.	4r	.	4r	4r	.
.	.	.	.	16a\LL	.	.	.	.	.	.	.	.	.	.	.
8c#\J	.	8e/J	.	16b\	.	.	.	.	.	.	.	.	.	.	.
.	.	.	.	16cc#X\JJ	.	.	.	.	.	.	.	.	.	.	.
!	!	!	!	!LO:TX:a:t=P:problem:mixed beam	!	!	!	!	!	!	!	!	!	!	!
8B\L	.	8f#/L	.	8dd\L	2r	.	2r	.	2r	.	2r	.	2r	2r	.
8B\	.	8f#/J	.	8.d/J	.	.	.	.	.	.	.	.	.	.	.
8A\	.	16A/LL	.	.	.	.	.	.	.	.	.	.	.	.	.
.	.	16c#X/	.	16a\LL	.	.	.	.	.	.	.	.	.	.	.
8A\J	.	16d/	.	16b\	.	.	.	.	.	.	.	.	.	.	.
.	.	16e/JJ	.	16cc#X\JJ	.	.	.	.	.	.	.	.	.	.	.
=27	=27	=27	=27	=27	=27	=27	=27	=27	=27	=27	=27	=27	=27	=27	=27
!	!	!	!	!LO:TX:a:t=P:problem:mixed beam	!	!	!	!	!	!	!	!	!	!LO:TX:a:t=2	!
8G\L	.	8B/L	.	8dd\L	00r	.	00r	.	00r	.	00r	.	00r	0r	.
8G\	.	8B/J	.	8d/J	.	.	.	.	.	.	.	.	.	.	.
8E\	.	8G/L	.	16dd\LL	.	.	.	.	.	.	.	.	.	.	.
.	.	.	.	16ee\	.	.	.	.	.	.	.	.	.	.	.
8E\J	.	16A/L	.	16ff#\	.	.	.	.	.	.	.	.	.	.	.
.	.	16B/JJ	.	16gg\JJ	.	.	.	.	.	.	.	.	.	.	.
!	!	!	!	!LO:TX:a:t=P:problem:mixed beam	!	!	!	!	!	!	!	!	!	!	!
8A\L	.	8cc#X\L	.	8aa\L	.	.	.	.	.	.	.	.	.	.	.
8A\	.	8cc#\	.	8.a/J	.	.	.	.	.	.	.	.	.	.	.
8G#X\	6	8b\	.	.	.	.	.	.	.	.	.	.	.	.	.
.	.	.	.	16ee\LL	.	.	.	.	.	.	.	.	.	.	.
8G#\J	.	8b\J	.	16ff#\	.	.	.	.	.	.	.	.	.	.	.
.	.	.	.	16gg#X\JJ	.	.	.	.	.	.	.	.	.	.	.
=28	=28	=28	=28	=28	=28	=28	=28	=28	=28	=28	=28	=28	=28	=28	=28
!	!	!	!	!LO:TX:a:t=P:problem:mixed beam	!	!	!	!	!	!	!	!	!	!	!
8F#\L	n	8cc#X\L	.	8aa\L	.	.	.	.	.	.	.	.	.	.	.
8F#\	.	8a\J	.	8.a/J	.	.	.	.	.	.	.	.	.	.	.
8E\	5 4#	16b\LL	.	.	.	.	.	.	.	.	.	.	.	.	.
.	.	16g#X\	.	16ee\LL	.	.	.	.	.	.	.	.	.	.	.
8E\J	.	16a\	.	16ff#\	.	.	.	.	.	.	.	.	.	.	.
.	.	16dd\JJ	.	16gg#X\JJ	.	.	.	.	.	.	.	.	.	.	.
!LO:TX:a:t=P:problem:mixed beam	!	!	!	!LO:TX:a:t=P:problem:mixed beam	!	!	!	!	!	!	!	!	!	!	!
8D\L	.	8ff#\L	.	16aa\LL	.	.	.	.	.	.	.	.	.	.	.
.	.	.	.	16a/JJ	.	.	.	.	.	.	.	.	.	.	.
!	!	!	!	!LO:TX:a:t=P:problem:klamra łukowa	!	!	!	!	!	!	!	!	!	!	!
8BB\	.	8a\J	.	24dd\LL	.	.	.	.	.	.	.	.	.	.	.
.	.	.	.	24cc\	.	.	.	.	.	.	.	.	.	.	.
.	.	.	.	24b\JJ	.	.	.	.	.	.	.	.	.	.	.
.	.	.	.	8qqcc/	.	.	.	.	.	.	.	.	.	.	.
!	!	!LO:LB:g=original	!	!	!	!	!	!	!	!	!	!	!	!	!
8E\	.	8a/L	.	4bt\	.	.	.	.	.	.	.	.	.	.	.
8EE/J	.	8g#X/J	.	.	.	.	.	.	.	.	.	.	.	.	.
!LO:LB:g=original	!	!	!	!	!	!	!	!	!	!	!	!	!	!	!
=29	=29	=29	=29	=29	=29	=29	=29	=29	=29	=29	=29	=29	=29	=29	=29
!LO:TX:a:t=P:problem:mixed beam	!	!LO:TX:a:t=P:problem:mixed beam	!	!	!	!	!	!	!	!	!	!	!	!	!
8AA/L	.	8e/L	.	4.a/	.	.	.	.	.	.	.	.	.	4r	.
8A\	.	8c#X/	.	.	.	.	.	.	.	.	.	.	.	.	.
8F#\	.	8d/	.	.	.	.	.	.	.	.	.	.	.	8r	.
8D\J	.	8ff#\J	.	8aa\	.	.	.	.	.	.	.	.	.	8d/	.
2r	.	16gg\KL	.	(16bb\KL	.	.	.	.	.	.	.	.	.	(8d'/L	.
.	.	8ff#\	.	8aa\	.	.	.	.	.	.	.	.	.	.	.
.	.	.	.	.	.	.	.	.	.	.	.	.	.	8d'/	.
.	.	16ee\Jk	.	16gg\Jk)	.	.	.	.	.	.	.	.	.	.	.
.	.	16ee\KL	.	(16gg\KL	.	.	.	.	.	.	.	.	.	8d'/	.
.	.	8ff#\	.	8aa\	.	.	.	.	.	.	.	.	.	.	.
.	.	.	.	.	.	.	.	.	.	.	.	.	.	8d'/J)	.
.	.	16gg\Jk	.	16bb\Jk)	.	.	.	.	.	.	.	.	.	.	.
!	!	!	!	!LO:LB:g=original	!	!	!	!	!	!	!	!	!	!	!
=30	=30	=30	=30	=30	=30	=30	=30	=30	=30	=30	=30	=30	=30	=30	=30
4D\	.	16ff#\KL	.	(16aa\KL	.	.	.	.	.	.	.	.	.	8d'/L	.
.	.	8ee\	.	8gg\	.	.	.	.	.	.	.	.	.	.	.
.	.	.	.	.	.	.	.	.	.	.	.	.	.	8d'/	.
.	.	16dd\Jk	.	16ff#\Jk)	.	.	.	.	.	.	.	.	.	.	.
4r	.	16dd\KL	.	(16ff#\KL	.	.	.	.	.	.	.	.	.	8d'/	.
.	.	8ee\	.	8gg\	.	.	.	.	.	.	.	.	.	.	.
.	.	.	.	.	.	.	.	.	.	.	.	.	.	8d'/J	.
.	.	16ff#\Jk	.	16aa\Jk)	.	.	.	.	.	.	.	.	.	.	.
8r	.	8gg\	.	8bb\	.	.	.	.	.	.	.	.	.	8d'/L	.
8D\L	.	4ff#\	.	4aa\	.	.	.	.	.	.	.	.	.	8d'/J	.
8F#\	.	.	.	.	.	.	.	.	.	.	.	.	.	4r	.
8D\J	.	8f#/	.	8a/	.	.	.	.	.	.	.	.	.	.	.
=31	=31	=31	=31	=31	=31	=31	=31	=31	=31	=31	=31	=31	=31	=31	=31
2r	.	16g/KL	.	(16b/KL	00r	.	00r	.	00r	.	00r	.	00r	8D/L	.
.	.	8f#/	.	8a/	.	.	.	.	.	.	.	.	.	.	.
.	.	.	.	.	.	.	.	.	.	.	.	.	.	8D/	.
.	.	16e/Jk	.	16g/Jk)	.	.	.	.	.	.	.	.	.	.	.
.	.	16e/KL	.	(16g/KL	.	.	.	.	.	.	.	.	.	8D/	.
.	.	8f#/	.	8a/	.	.	.	.	.	.	.	.	.	.	.
.	.	.	.	.	.	.	.	.	.	.	.	.	.	8D/J	.
.	.	16g/Jk	.	16b/Jk)	.	.	.	.	.	.	.	.	.	.	.
4D/	.	16f#/KL	.	(16a/KL	.	.	.	.	.	.	.	.	.	8D/L	.
.	.	8e/	.	8g/	.	.	.	.	.	.	.	.	.	.	.
.	.	.	.	.	.	.	.	.	.	.	.	.	.	8D/	.
.	.	16d/Jk	.	16f#/Jk)	.	.	.	.	.	.	.	.	.	.	.
4r	.	16d/KL	.	(16f#/KL	.	.	.	.	.	.	.	.	.	8D/	.
.	.	8e/	.	8g/	.	.	.	.	.	.	.	.	.	.	.
.	.	.	.	.	.	.	.	.	.	.	.	.	.	8D/J	.
.	.	16f#/Jk	.	16a/Jk)	.	.	.	.	.	.	.	.	.	.	.
=32	=32	=32	=32	=32	=32	=32	=32	=32	=32	=32	=32	=32	=32	=32	=32
8r	.	8g/	.	8b/	.	.	.	.	.	.	.	.	.	8D/L	.
8D\L	.	4f#/	.	4a/	.	.	.	.	.	.	.	.	.	8d/J	.
8F#\	.	.	.	.	.	.	.	.	.	.	.	.	.	4r	.
8D\J	.	8ff#\	.	8aa\	.	.	.	.	.	.	.	.	.	.	.
8G\L	.	16gg\LL	.	16bb\LL	.	.	.	.	.	.	.	.	.	2r	.
.	.	16ff#\	.	16aa\	.	.	.	.	.	.	.	.	.	.	.
8G\	.	16ee\	.	16gg\	.	.	.	.	.	.	.	.	.	.	.
!	!	!LO:SIC:t=custos:a	!	!	!	!	!	!	!	!	!	!	!	!	!
.	.	16dd\JJ	.	16ff#\JJ	.	.	.	.	.	.	.	.	.	.	.
!	!	!LO:LB:g=original	!	!	!	!	!	!	!	!	!	!	!	!	!
8G\	.	16g/LL	.	16ee\LL	.	.	.	.	.	.	.	.	.	.	.
.	.	16f#/	.	16dd\	.	.	.	.	.	.	.	.	.	.	.
8G\J	.	16e/	.	16cc#X\	.	.	.	.	.	.	.	.	.	.	.
.	.	16d/JJ	.	16b\JJ	.	.	.	.	.	.	.	.	.	.	.
!	!	!	!	!	!	!	!	!	!	!	!	!	!	!LO:LB:g=original	!
=33	=33	=33	=33	=33	=33	=33	=33	=33	=33	=33	=33	=33	=33	=33	=33
!LO:TX:a:t=P:problem:mixed beam	!	!	!	!	!	!	!	!	!	!	!	!	!	!LO:TX:a:t=2	!
8A\L	#	8c#X/	.	8a/	.	.	.	.	.	.	.	.	.	0r	.
8AA/	7 #	4ee\	.	4gg\	.	.	.	.	.	.	.	.	.	.	.
8C#X/	.	.	.	.	.	.	.	.	.	.	.	.	.	.	.
8E/J	6|	16dd\LL	.	16ff#\LL	.	.	.	.	.	.	.	.	.	.	.
.	.	16cc#X\JJ	.	16ee\JJ	.	.	.	.	.	.	.	.	.	.	.
!	!	!LO:TX:a:t=P:problem:mixed beam	!	!	!	!	!	!	!	!	!	!	!	!	!
8D\L	.	8dd\L	.	8ff#\L	.	.	.	.	.	.	.	.	.	.	.
8B\	-	8f#/J	.	16ee\L	.	.	.	.	.	.	.	.	.	.	.
!	!	!	!	!LO:SIC:t=custos:a	!	!	!	!	!	!	!	!	!	!	!
.	.	.	.	16dd\JJ	.	.	.	.	.	.	.	.	.	.	.
!	!	!	!	!LO:LB:g=original	!	!	!	!	!	!	!	!	!	!	!
8G\	6	8b/L	.	8ee\L	.	.	.	.	.	.	.	.	.	.	.
8A\J	#	16a/L	.	8cc#X\J	.	.	.	.	.	.	.	.	.	.	.
.	.	16g/JJ	.	.	.	.	.	.	.	.	.	.	.	.	.
=34	=34	=34	=34	=34	=34	=34	=34	=34	=34	=34	=34	=34	=34	=34	=34
4B\	-	4f#/	.	8dd\L	.	.	.	.	.	.	.	.	.	.	.
.	.	.	.	16cc#X\L	.	.	.	.	.	.	.	.	.	.	.
.	.	.	.	16b\JJ	.	.	.	.	.	.	.	.	.	.	.
8F#\L	6	8d/L	.	8a/L	.	.	.	.	.	.	.	.	.	.	.
8G\J	.	8d/J	.	8g/J	.	.	.	.	.	.	.	.	.	.	.
4A\	4#	8d/	.	8f#/L	.	.	.	.	.	.	.	.	.	.	.
.	.	4d/	.	(32f#/LL	.	.	.	.	.	.	.	.	.	.	.
.	.	.	.	32e/J	.	.	.	.	.	.	.	.	.	.	.
.	.	.	.	16d/JJ)	.	.	.	.	.	.	.	.	.	.	.
.	.	.	.	8qqf#/	.	.	.	.	.	.	.	.	.	.	.
4AA/	.	.	.	4eT/	.	.	.	.	.	.	.	.	.	.	.
.	.	8c#X/	.	.	.	.	.	.	.	.	.	.	.	.	.
!	!	!	!	!	!	!	!	!	!	!	!	!	!LO:LB:g=original	!	!
=35	=35	=35	=35	=35	=35	=35	=35	=35	=35	=35	=35	=35	=35	=35	=35
4D\	.	16d/LL	.	16d/LL	4r	.	4r	.	4r	.	4r	.	4r	4r	.
.	.	16d/	.	16f#/	.	.	.	.	.	.	.	.	.	.	.
.	.	16f#/	.	16a/	.	.	.	.	.	.	.	.	.	.	.
.	.	16a/JJ	.	16dd/JJ	.	.	.	.	.	.	.	.	.	.	.
8D\L	.	16dd\LL	.	16ff#\LL	8D\	e-	8d\	e-	8f#\	E-	8a\	e-	8r	8r	.
.	.	16ff#\	.	16aa\	.	.	.	.	.	.	.	.	.	.	.
!LO:SIC:t=custos:C	!	!	!	!	!	!	!	!	!	!	!	!	!	!	!
8G\J	.	16aa\	.	16bb\	8G\	-xi-	8d\	-xi-	8g\	-xi-	8b\	-xi-	8d/	8d/	.
.	.	16dd\JJ	.	16gg\JJ	.	.	.	.	.	.	.	.	.	.	.
!LO:LB:g=original	!	!	!	!	!	!	!	!	!	!	!	!	!	!	!
8F#\L	6	16dd\LL	.	16aa\LL	8F#\	-vit	8d\	-vit	8a\	-vit	8a,\	-vit	8d/L	8d/L	.
.	.	16dd\	.	16dd\	.	.	.	.	.	.	.	.	.	.	.
!	!	!	!	!	!LO:SIC:t=custos:C	!	!	!	!	!	!	!	!	!	!
8G\	.	16dd\	.	16bb\	8G\	e-	8d\	e-	8g\	e-	8b\	e-	16d/L	16d/L	.
.	.	16dd\JJ	.	16gg\JJ	.	.	.	.	.	.	.	.	16d/JJ	16d/JJ	.
!	!	!	!	!	!LO:LB:g=original	!	!	!	!	!	!	!	!	!	!
8D\	.	16ff#\LL	.	16aa\LL	8D\	-o-	8d\	-o-	8f#\	-o-	8a\	-o-	16d/LL	16d/LL	.
.	.	16aa\	.	16ff#\	.	.	.	.	.	.	.	.	16d/	16d/	.
8G\J	.	16gg\	.	16bb\	8G\	-rum	8d\	-rum	8g\	-rum	8b\	-rum	16d/	16d/	.
.	.	16dd\JJ	.	16gg\JJ	.	.	.	.	.	.	.	.	16d/JJ	16d/JJ	.
!	!	!	!	!	!	!	!LO:LB:g=original	!	!	!	!LO:LB:g=original	!	!	!	!
=36	=36	=36	=36	=36	=36	=36	=36	=36	=36	=36	=36	=36	=36	=36	=36
8F#\L	.	16dd\LL	.	16aa\LL	8F#\	e-	8d\	e-	8a\	e-	8a\	e-	8d/L	8d/L	.
.	.	16dd\	.	16dd\	.	.	.	.	.	.	.	.	.	.	.
8G\	.	16dd\	.	16bb\	8G\	-o-	8d\	-o-	8g\	-o-	8b\	-o-	8d/J	8d/J	.
.	.	16dd\JJ	.	16gg\JJ	.	.	.	.	.	.	.	.	.	.	.
8c\	.	8ee\L	.	8ee\L	8c\	-rum,	8c\	-rum,	8g,\	-rum	8ee,\	-rum	4r	4r	.
8B\J	.	8dd\J	.	8gg\J	8B\	Con-	8d\	Con-	8g\	Con-	8dd\	Con-	.	.	.
!	!	!	!	!	!	!	!	!	!	!	!LO:SIC:s=8cc#	!	!	!	!
8A\L	6	8cc#X\L	.	8ff#\L	8A\	-ſti-	8A\	-ſti-	8f#\	-ſti-	8cc\	-ſti-	16r	16r	.
.	.	.	.	.	.	.	.	.	.	.	.	.	16d/LL	16d/LL	.
8G\	.	8ee\J	.	8bb\J	16G\	-tu-	8B\	-tu-	16g\	-tu-	16b\	-tu-	16d/	16d/	.
!	!	!	!	!	!	!	!	!	!	!	!LO:SIC:s=16cc#	!	!	!	!
.	.	.	.	.	16A\	-es	.	.	16d\	-es	16cc\	-es	16d/JJ	16d/JJ	.
8F#\	.	8dd\L	.	16aa\LL	8F#\L	e-	(8A\	-es	8a\L	e-	8dd\L	e-	16d/LL	16d/LL	.
.	.	.	.	16bb\	.	.	.	.	.	.	.	.	16d/	16d/	.
!	!	!	!	!	!	!	!	!	!	!	!LO:SIC:s=16cc#	!	!	!	!
8G\J	.	16cc#\L	.	16gg\	8G\J	.	8d\)	e-	8g\J	.	16cc\L	.	16d/	16d/	.
!	!	!	!	!LO:TX:b:t=verte	!	!	!	!	!	!	!	!	!	!	!
.	.	16b\JJ	.	16aa\JJ	.	.	.	.	.	.	16b\JJ	.	16d/JJ	16d/JJ	.
!	!	!LO:LB:g=original	!	!LO:PB:g=original	!	!	!	!	!LO:LB:g=original	!	!	!	!	!	!
=37	=37	=37	=37	=37	=37	=37	=37	=37	=37	=37	=37	=37	=37	=37	=37
4D/	.	8a\L	.	16ff#\LL	8D,/	-os	8d\	-o-	8f#\	-os	8a,\	-os	4d/	4d/	.
.	.	.	.	16ee\	.	.	.	.	.	.	.	.	.	.	.
.	.	16dd\L	.	16ff#\	4d\	e-	4d\	-rum,	4f#\	e-	4a\	e-	.	.	.
.	.	16ee\JJ	.	16gg\JJ	.	.	.	.	.	.	.	.	.	.	.
!	!	!	!	!	!	!	!	!	!	!	!	!	!LO:TX:a:t=P:problem:mixed beam	!	!
8r	.	8ff#\L	.	8aa\L	.	.	.	.	.	.	.	.	8d/L	8g\L	.
8GG/L	.	8gg\J	.	8bb\J	8d\	-os	8d\	e-	8g\	-os	8b\	-os	8g\J	8b\J	.
8D/	.	16aa\LL	.	16ccc\LL	8d\	prin-	8d,\	-os	16a\LL	prin-	16cc\LL	prin-	8a\L	16cc\LL	.
.	.	16ff#\	.	16aa\	.	.	.	.	16f#\JJ	.	16a\JJ	.	.	16a\	.
8GG/J	.	16gg\	.	16bb\	8G\	-ci-	8d\	prin-	8g\	-ci-	16b\LL	-ci-	8g\J	16b\	.
.	.	16dd\JJ	.	16gg\JJ	.	.	.	.	.	.	16g\JJ	.	.	16g\JJ	.
8r	.	8ff#\L	.	8aa\L	8d\	-pes,	8d\	-ci-	8f#\	-pes	8a\	-pes	8d\L	8a\L	.
8GG/	.	8gg\J	.	8bb\J	8d\	e-	8d\	-pes	8g\	e-	8b\	e-	8g\J	8b\J	.
=38	=38	=38	=38	=38	=38	=38	=38	=38	=38	=38	=38	=38	=38	=38	=38
8D\L	7	16aa\LL	.	16ccc\LL	8d\	-o-	8d\	e-	16a\LL	-o-	16cc\LL	-o-	8a\L	16cc\LL	.
.	.	16ff#\	.	16aa\	.	.	.	.	16f#\JJ	.	16a\JJ	.	.	16a\	.
!	!	!	!	!	!LO:SIC:t=custos:C	!	!	!	!	!	!	!	!	!	!
8G\	.	16gg\	.	16bb\	16G\	-rum	16d\	-o-	(16g\	-rum	16b\	-rum	16g\L	16b\	.
!	!	!	!	!	!LO:LB:g=original	!	!	!	!	!	!LO:SIC:t=custos:d	!	!	!	!
.	.	16dd\JJ	.	16gg\JJ	16G\	{e-	16B\	-rum	16d,\)	.	16g,\	.	16a\JJ	16cc\JJ	.
!	!	!	!	!	!	!	!	!	!	!	!LO:LB:g=original	!	!LO:TX:a:t=P:problem:mixed beam	!	!
8F#\	.	16dd\LL	.	16aa\LL	8F#\	-o-	8.A/	prin-	8.f#\	prin-	16dd\LL	prin-	8d/L	16dd\LL	.
.	.	16dd\	.	16ff#\	.	.	.	.	.	.	16ee\JJ	.	.	16ee\	.
8D\J	.	16ff#\	.	16aa\	8D\	-rum}	.	.	.	.	16dd\LL	-ci-	8a\J	16dd\	.
!	!	!	!	!	!	!	!	!	!LO:TX:a:t=P:problem:brak sylaby "ci"	!	!	!	!	!	!
.	.	16ff#\JJ	.	16aa\JJ	.	.	16A/	-ci-	16f#,\	.	16cc\JJ	.	.	16cc\JJ	.
!LO:TX:a:t=P:problem:mixed beam	!	!	!	!	!LO:TX:a:t=P:problem:mixed beam	!	!LO:LB:g=original	!	!	!	!	!	!	!	!
!	!	!	!	!	!LO:SIC:t:s=eo-	!	!	!	!	!	!	!	!	!	!
8G\L	.	16dd\LL	.	16bb\LL	8G\L	e-	8B\	-pes	8g\	-pes	8b\	-pes	16g\LL	16b\LL	.
.	.	16dd\	.	16gg\	.	.	.	.	.	.	.	.	16b\	16dd\	.
8C\	.	16ee\	.	16aa\	8C/J	.	8e\	e-	8g\	e-	8a\	e-	16a\	16cc\	.
.	.	16cc\JJ	.	16ee\JJ	.	.	.	.	.	.	.	.	16g\JJ	16b\JJ	.
.	.	.	.	.	.	.	.	.	.	.	16qqa/LL	.	.	.	.
.	.	.	.	.	.	.	.	.	.	.	16qqb/JJ	.	.	8qqb/	.
8D\	.	16a\LL	.	16ff#\LL	4D/	.	4d\	-o-	8g\L	-o-	4aT\	-o-	8d/L	8.aT\L	.
.	.	16dd\	.	16aa\	.	.	.	.	.	.	.	.	.	.	.
8DD/J	.	16a\	.	16dd\	.	.	.	.	8f#\J	.	.	.	16d/L	.	.
.	.	16cc\JJ	.	16ff#\JJ	.	.	.	.	.	.	.	.	16d/JJ	16g\Jk	.
!	!	!	!	!	!	!	!	!	!	!	!	!	!	!LO:LB:g=original	!
=39	=39	=39	=39	=39	=39	=39	=39	=39	=39	=39	=39	=39	=39	=39	=39
!	!	!	!	!	!	!	!	!	!	!	!	!	!	!LO:TX:a:t=P:problem:mixed beam	!
4GG/	.	8b\L	.	8gg\L	4GG/	-rum	4d\	-rum	8g\	-rum,	8g/	-rum	8B/L	8g\L	.
.	.	8b\J	.	8dd\J	.	.	.	.	8b\	e-	8dd\	e-	8G/	8G/	.
!	!	!	!	!	!LO:TX:a:t=P:problem:4\right	!	!	!	!	!	!	!	!	!	!
4r	.	8cc\L	.	16ee\LL	4G\	e-	4r	.	16cc\LL	-o-	16ee\LL	-o-	8G/	8G/	.
.	.	.	.	16dd\J	.	.	.	.	16b\J	.	16dd\J	.	.	.	.
!	!	!	!	!	!	!	!	!	!LO:SIC:t=A	!	!	!	!	!	!
.	.	16b\L	.	8cc\J	.	.	.	.	8a\J	.	8cc\J	.	8G/J	8G/J	.
.	.	16a\JJ	.	.	.	.	.	.	.	.	.	.	.	.	.
*	*	*	*	*	*2\right	*	*	*	*	*	*	*	*	*	*
!	!	!LO:TX:a:t=P:problem:mixed beam	!	!	!	!	!	!	!LO:LB:g=original	!	!	!	!LO:LB:g=original	!	!
4GG/	.	8b\L	.	8dd\L	2G\	-o-	8r	.	8b\	-rum	8dd\L	.	8G/L	8G/L	.
.	.	8d/J	.	8b\J	.	.	8d\	e-	8g\	e-	8b\J	.	16G/L	16G/L	.
.	.	.	.	.	.	.	.	.	.	.	.	.	16G/JJ	16G/JJ	.
4r	.	8e/L	.	16cc\LL	.	.	16e\LL	-o-	4g\	-o-	16cc\LL	.	8G/L	8G/L	.
.	.	.	.	16b\J	.	.	16d\J	.	.	.	16b\J	.	.	.	.
.	.	16d/L	.	8a\J	.	.	8c\J	.	.	.	8a\J	.	8G/J	8G/J	.
.	.	16c/JJ	.	.	.	.	.	.	.	.	.	.	.	.	.
=40	=40	=40	=40	=40	=40	=40	=40	=40	=40	=40	=40	=40	=40	=40	=40
!	!	!	!	!LO:TX:a:t=P:problem:mixed beam	!	!	!	!	!	!	!	!	!LO:TX:a:t=P:problem:mixed beam	!LO:TX:a:t=P:problem:mixed beam	!
4GG/	.	8d/L	.	8b\L	8GG/	-rum	8d\L	.	4.g\	-rum	4b\	-rum,	8G/L	8G/L	.
.	.	8B/J	.	8d/J	8d\	{e-	8B\J	.	.	.	.	.	8b\J	8dd\J	.
4r	.	8c/L	.	16e/LL	16e\LL	-o-	16c\LL	.	.	.	8r	.	8cc\L	8ee\L	.
.	.	.	.	16d/J	16d\J	.	16B\J	.	.	.	.	.	.	.	.
.	.	16B/L	.	8c/J	8c\J	.	8A\J	.	8g\	e-	8g/	Su-	16b\L	16dd\L	.
.	.	16A/JJ	.	.	.	.	.	.	.	.	.	.	16a\JJ	16cc\JJ	.
*	*	*	*	*	*	*	*	*	*2\right	*	*	*	*	*	*
!	!	!	!	!	!	!	!	!	!LO:SIC:s=2d	!	!	!	!	!	!
4GG/	.	8B/L	.	8d/L	8d\L	-rum}	8B\	-rum,	2g\	-o-	2f#/	.	4b\	4dd\	.
.	.	8d/J	.	8B/J	8B\J	.	8d\	e-	.	.	.	.	.	.	.
!	!	!	!	!LO:LB:g=original	!	!	!	!	!	!	!	!	!	!	!
4r	.	8e/L	.	8c/L	16c\LL	{e-	16e\LL	-o-	.	.	.	.	4r	4r	.
.	.	.	.	.	16B\J	.	16d\J	.	.	.	.	.	.	.	.
.	.	16d/L	.	16B/L	8A\J	.	8c\J	.	.	.	.	.	.	.	.
!	!	!LO:TX:b:t=Verte	!	!	!	!	!	!	!	!	!	!	!	!	!
.	.	16c/JJ	.	16A/JJ	.	.	.	.	.	.	.	.	.	.	.
!	!	!LO:PB:g=original	!	!	!	!	!	!	!	!	!	!	!	!	!
=41	=41	=41	=41	=41	=41	=41	=41	=41	=41	=41	=41	=41	=41	=41	=41
!	!	!LO:TX:a:t=P:problem:mixed beam	!	!LO:TX:a:t=P:problem:mixed beam	!	!	!	!	!	!	!	!	!	!	!
8r	.	16d/LL	.	16B/LL	8B\	-o-	8d\	-rum,	(8a\	-rum	(8g/	-per	8r	8r	.
.	.	16b\	.	16dd\	.	.	.	.	.	.	.	.	.	.	.
8G\L	.	16b\	.	16dd\	8G,\	-rum}	8B\	om-	8g,\)	.	8dd,\)	.	8g\L	8b\L	.
.	.	16b\JJ	.	16dd\JJ	.	.	.	.	.	.	.	.	.	.	.
8F#\	.	16a\LL	.	16dd\LL	8F#\	om-	8A\	-nem	8a\	om-	16dd\LL	om-	8d\	8a\	.
!	!	!	!	!	!	!	!	!	!	!	!LO:SIC:t=custos:f	!	!	!	!
.	.	16a\	.	16dd\	.	.	.	.	.	.	16cc\JJ	.	.	.	.
8G\J	.	16dd\	.	16gg\	8G\	-nem	8B\	{om-	8g\	-nem	16b\LL	-nem,	8B\J	8g\J	.
.	.	16ee\JJ	.	16bb\JJ	.	.	.	.	.	.	16cc\JJ	.	.	.	.
!	!	!	!	!	!LO:LB:g=original	!	!	!	!	!	!	!	!	!	!
8D/L	.	16ff#\LL	.	16aa\LL	8D/	{om-	8A\	-nem}	8f#\	{om-	(8a\	ter-	16d\LL	16a\LL	.
.	.	16ff#\	.	16aa\	.	.	.	.	.	.	.	.	16g\	16dd\	.
!	!	!	!	!	!	!	!LO:SIC:t=custos:B	!	!	!	!	!	!	!	!
8BB/	.	16dd\	.	16bb\	8BB/	-nem}	8d\	ter-	8g\	-nem}	8b\)	.	16a\	16cc\	.
.	.	16dd\JJ	.	16gg\JJ	.	.	.	.	.	.	.	.	16g\JJ	16b\JJ	.
!	!	!	!	!	!	!	!LO:LB:g=original	!	!	!	!	!	!	!	!
8C/	.	16ee\LL	.	16gg\LL	8C/L	ter-	8e\L	.	8g\L	ter-	4a\	.	8g\L	4a\	.
.	.	16ee\	.	16aa\	.	.	.	.	.	.	.	.	.	.	.
8D/J	.	16dd\	.	16ff#\	8D/J	.	8d\J	.	8f#\J	.	.	.	8d\J	.	.
.	.	16cc\JJ	.	16aa\JJ	.	.	.	.	.	.	.	.	.	.	.
!LO:LB:g=original	!	!	!	!	!	!	!	!	!	!	!	!	!	!	!
=42	=42	=42	=42	=42	=42	=42	=42	=42	=42	=42	=42	=42	=42	=42	=42
!LO:TX:a:t=P:problem:mixed beam	!	!	!	!	!	!	!	!	!	!	!	!	!	!	!
8GG/L	.	16b\LL	.	16gg\LL	8GG/	-ram,	8d\	-ram	4g\	-ram,	4b\	-ram,	4B/	4g\	.
.	.	16dd\	.	16dd\	.	.	.	.	.	.	.	.	.	.	.
8G\	.	16g\	.	16b\	4d\	Su-	4d\	{om-	.	.	.	.	.	.	.
.	.	16b\JJ	.	16gg\JJ	.	.	.	.	.	.	.	.	.	.	.
8D\	.	8ff#\L	.	8aa\L	.	.	.	.	8f#\	Su-	8a\	Su-	8d\L	8a\L	.
8GG/J	.	8gg\J	.	8bb\J	8d\	-per	8d\	-nem	8g\	-per	8b\	-per	8g\J	8b\J	.
8D\L	.	16aa\LL	.	16ccc\LL	8D/	om-	8d\	om-	16a\LL	om-	16cc\LL	om-	8a\L	16cc\LL	.
.	.	16ff#\	.	16aa\	.	.	.	.	16f#\JJ	.	16a\JJ	.	.	16a\	.
8G\J	.	16gg\	.	16bb\	8G\	-nem	8d\	-nem	8g\	-nem,	16b\LL	-nem	8g\	16b\	.
.	.	16dd\JJ	.	16gg\JJ	.	.	.	.	.	.	16g\JJ	.	.	16g\JJ	.
!	!	!	!	!	!	!	!	!	!LO:SIC:t=B	!	!	!	!	!	!
8r	.	8ff#\L	.	8aa\L	8d\	{om-	8d\	ter-	8f#\	om-	8a\	{om-	8d\	8a\L	.
!	!	!	!	!	!	!	!	!	!LO:LB:g=original	!	!	!	!	!	!
8G\	.	8gg\J	.	8bb\J	8d\	-nem}	8d\	-ram}	8g\	-nem	8b\	-nem}	8g\J	8b\J	.
=43	=43	=43	=43	=43	=43	=43	=43	=43	=43	=43	=43	=43	=43	=43	=43
8D\L	.	16aa\LL	.	16ccc\LL	8d\	ter-	8d\	om-	16a\LL	Su-	16cc\LL	ter-	8a\L	16cc\LL	.
.	.	16ff#\	.	16aa\	.	.	.	.	16f#\JJ	.	16a\JJ	.	.	16a\	.
8G\	.	16gg\	.	16bb\	[16G\	-ram	(16d\	-nem,	(16g\	-per	16b\	-ram	16g\L	16b\	.
.	.	16dd\JJ	.	16gg\JJ	16G\]	.	16B\)	.	16d,\)	.	16g,\	.	16a\JJ	16cc\JJ	.
8F#\	.	16dd\LL	.	16aa\LL	8F#\	Su-	8.A\	{om-	8.f#\	Su-	16dd\LL	Su-	8d\L	16dd\LL	.
.	.	16dd\	.	16aa\	.	.	.	.	.	.	16ee\JJ	.	.	16ee\	.
8D\J	.	16ff#\	.	16ff#\	8D/	-per	.	.	.	.	16dd\LL	-per	8a\J	16dd\	.
.	.	16ff#\JJ	.	16aa\JJ	.	.	16A,\	-nem}	16f#\	-per	16cc\JJ	.	.	16cc\JJ	.
!LO:TX:a:t=P:problem:mixed beam	!	!	!	!	!	!	!	!	!	!	!	!	!	!	!
8G\L	.	16dd\LL	.	16bb\LL	8G\	om-	8B\	ter-	8g\	om-	8b\	om-	16g\LL	16b\LL	.
.	.	16dd\	.	16gg\	.	.	.	.	.	.	.	.	16b\	16dd\	.
8C\	.	16ee\	.	16aa\	(>8C/	-nem	(8e\	-ram	8g\	-nem	8a\	-nem	16a\	16cc\	.
.	.	16cc\JJ	.	16ee\JJ	.	.	.	.	.	.	.	.	16g\JJ	16b\JJ	.
!	!	!	!	!	!	!	!	!	!	!	!LO:TX:b:t=verte	!	!	!	!
.	.	.	.	.	.	.	.	.	.	.	8qqb/	.	.	8qqb/	.
8D\	.	16a\LL	.	16ff#\LL	4D/)	ter-	4d\)	.	(8g\L	ter-	4aT\	ter-	8g\L	4aT\	.
.	.	16dd\	.	16aa\	.	.	.	.	.	.	.	.	.	.	.
8DD/J	.	16a\	.	16dd\	.	.	.	.	8f#\J)	.	.	.	16d\L	.	.
.	.	16cc\JJ	.	16ff#\JJ	.	.	.	.	.	.	.	.	16d\JJ	.	.
!	!	!	!	!LO:LB:g=original	!LO:LB:g=original	!	!	!	!	!	!LO:PB:g=original	!	!	!LO:LB:g=original	!
=44	=44	=44	=44	=44	=44	=44	=44	=44	=44	=44	=44	=44	=44	=44	=44
!LO:TX:a:t=P:problem:mixed beam	!	!	!	!	!	!	!	!	!	!	!	!	!LO:TX:a:t=P:problem:mixed beam	!	!
8GG/L	.	16b\LL	.	16gg\LL	8GG/	-ram	8d\	om-	[8g\L	-ram	8g\	-ram	8B/L	8g\L	.
.	.	16b\	.	16dd\	.	.	.	.	.	.	.	.	.	.	.
8G\	.	16b\	.	16dd\	8G\	Su-	8B\	-nem	8g,\J]	.	8dd\	.	8g\	8b\	.
.	.	16b\JJ	.	16dd\JJ	.	.	.	.	.	.	.	.	.	.	.
!	!	!	!	!	!	!	!LO:SIC:t=custos:B	!	!	!	!	!	!	!	!
8F#\	.	16a\LL	.	16dd\LL	8F#\	-per	8A\	om-	8a\	Su-	(16dd\LL	Su-	8d\	8a\	.
.	.	16a\	.	16dd\	.	.	.	.	.	.	16cc\JJ)	.	.	.	.
!	!	!	!	!	!	!	!LO:LB:g=original	!	!	!	!	!	!	!	!
8G\J	.	16dd\	.	16gg\	8G\	om-	8B\	-nem	8g\	-per	(16b\LL	-per	8B\J	8g\J	.
.	.	16ee\JJ	.	16bb\JJ	.	.	.	.	.	.	16cc,\JJ)	.	.	.	.
!	!	!LO:PB:g=original	!	!	!	!	!	!	!	!	!	!	!LO:LB:g=original	!	!
8D/L	.	16ff#\LL	.	16ccc\LL	8D/	-nem	8A\	{om-	8f#\	om-	8a\	om-	16d\LL	16a\LL	.
.	.	16ff#\	.	16aa\	.	.	.	.	.	.	.	.	16g\	16b\	.
8BB/	.	16dd\	.	16bb\	8BB/L	ter-	8d\	-nem}	8g\	-nem	8b\	-nem	16a\	16cc\	.
.	.	16dd\JJ	.	16gg\JJ	.	.	.	.	.	.	.	.	16g\JJ	16b\JJ	.
.	.	.	.	.	.	.	.	.	.	.	.	.	.	8qqb/	.
8C/	.	16ee\LL	.	16gg\LL	8C/	.	(8e\L	ter-	(8g\L	ter-	4aT\	ter-	8g\L	8.a\L	.
.	.	16ee\	.	16aa\	.	.	.	.	.	.	.	.	.	.	.
8D/J	.	16dd\	.	16dd\	8D/J	.	8d\J)	.	8f#\J)	.	.	.	16d\L	.	.
.	.	16cc\JJ	.	16ff#\JJ	.	.	.	.	.	.	.	.	16d\JJ	16a\Jk	.
=45	=45	=45	=45	=45	=45	=45	=45	=45	=45	=45	=45	=45	=45	=45	=45
!LO:TX:a:t=Solo	!	!	!	!LO:TX:a:t=P:problem:mixed beam	!	!	!	!	!	!	!	!	!	!	!
8G\L	.	8b/L	.	8gg\L	4GG/	-ram	4d\	-ram	4g\	-ram	4b\	-ram	8B/L	8g\L	.
8G\	.	8b/	.	8.g/J	.	.	.	.	.	.	.	.	16G/L	16b\L	.
.	.	.	.	.	.	.	.	.	.	.	.	.	16B/JJ	16g\JJ	.
!	!	!	!	!	!	!	!	!	!	!	!	!	!LO:TX:a:t=P:problem:mixed beam	!	!
8F#\	.	8a/	.	.	4r	.	4r	.	4r	.	4r	.	8d/L	16a\LL	.
.	.	.	.	16dd\LL	.	.	.	.	.	.	.	.	.	16dd\	.
8F#\J	.	8a/J	.	16ee\	.	.	.	.	.	.	.	.	8a\J	16cc\	.
.	.	.	.	16ff#\JJ	.	.	.	.	.	.	.	.	.	16dd\JJ	.
!	!	!LO:TX:a:t=P:problem:mixed beam	!	!LO:TX:a:t=P:problem:mixed beam	!	!	!	!	!	!	!	!	!LO:TX:a:t=P:problem:mixed beam	!	!
8E\L	.	8b\L	.	8gg\L	2r	.	2r	.	2r	.	2r	.	8g\L	8b\L	.
8E\	.	8B/J	.	8.g/J	.	.	.	.	.	.	.	.	8B/J	8g\J	.
8D\	.	16d/LL	.	.	.	.	.	.	.	.	.	.	8d\L	16a\LL	.
.	.	16f#/	.	16dd\LL	.	.	.	.	.	.	.	.	.	16dd\	.
8D\J	.	16g/	.	16ee\	.	.	.	.	.	.	.	.	16a\L	16cc\	.
.	.	16a/JJ	.	16ff#\JJ	.	.	.	.	.	.	.	.	16b\JJ	16dd\JJ	.
!	!	!	!	!	!	!	!	!	!LO:LB:g=original	!	!	!	!	!	!
=46	=46	=46	=46	=46	=46	=46	=46	=46	=46	=46	=46	=46	=46	=46	=46
!	!	!	!	!	!LO:TX:a:t=P:problem:w fermaty wzięte dwie pauzy-longi (00r 00r)	!	!LO:TX:a:t=P:problem:w fermaty wzięte dwie pauzy-longi (00r 00r)	!	!	!	!	!	!	!	!
!	!	!	!	!LO:TX:a:t=P:problem:mixed beam	!	!	!	!	!	!	!	!	!	!	!
8C/L	.	8e/L	.	8gg\L	00r;;	.	00r;;	.	00r	.	00r	.	8cc\L	8ee\L	.
8C/	.	8e/J	.	8.g/J	.	.	.	.	.	.	.	.	8g\J	8g\J	.
8AA/	.	8c/L	.	.	.	.	.	.	.	.	.	.	16a\LL	16cc\LL	.
.	.	.	.	16a\LL	.	.	.	.	.	.	.	.	16b\	16dd\	.
8AA/J	.	16d/L	.	16b\	.	.	.	.	.	.	.	.	16a\	16cc\	.
.	.	16e/JJ	.	16cc\JJ	.	.	.	.	.	.	.	.	16g\JJ	16b\JJ	.
!	!	!	!	!LO:TX:a:t=P:problem:mixed beam	!	!	!	!	!	!	!	!	!	!	!
8D/L	.	8f#/L	.	8dd\L	.	.	.	.	.	.	.	.	4d/	4a\	.
8D/	.	8f#/	.	8.d/J	.	.	.	.	.	.	.	.	.	.	.
8C#X/	.	8e/	.	.	.	.	.	.	.	.	.	.	4r	4r	.
.	.	.	.	16a\LL	.	.	.	.	.	.	.	.	.	.	.
8C#/J	.	8e/J	.	16b\	.	.	.	.	.	.	.	.	.	.	.
.	.	.	.	16cc#X\JJ	.	.	.	.	.	.	.	.	.	.	.
!LO:LB:g=original	!	!	!	!	!	!	!	!	!	!	!	!	!	!	!
=47	=47	=47	=47	=47	=47	=47	=47	=47	=47	=47	=47	=47	=47	=47	=47
!	!	!	!	!LO:TX:a:t=P:problem:mixed beam	!	!	!	!	!	!	!	!	!	!	!
8BB/L	.	8f#/L	.	8dd\L	.	.	.	.	.	.	.	.	00r	1r	.
!	!	!	!	!LO:SIC:s=8.d	!	!	!	!	!	!	!	!	!	!	!
8BB/	.	8d/J	.	8.c/J	.	.	.	.	.	.	.	.	.	.	.
8AA/	.	16e/LL	.	.	.	.	.	.	.	.	.	.	.	.	.
.	.	16c#X/	.	16a\LL	.	.	.	.	.	.	.	.	.	.	.
8AA/J	.	16d/	.	16b\	.	.	.	.	.	.	.	.	.	.	.
!	!	!	!	!LO:TX:a:t=P:problem:krzyżyk nad nutą	!	!	!	!	!	!	!	!	!	!	!
.	.	16g/JJ	.	16cc#X\JJ	.	.	.	.	.	.	.	.	.	.	.
!	!	!	!	!LO:TX:a:t=P:problem:mixed beam	!	!	!	!	!	!	!	!	!	!	!
8GG/L	.	8b/L	.	16dd\LL	.	.	.	.	.	.	.	.	.	.	.
!	!	!	!	!LO:SIC:t=custos:d	!	!	!	!	!	!	!	!	!	!	!
.	.	.	.	16d/JJ	.	.	.	.	.	.	.	.	.	.	.
!	!	!LO:SIC:s=8d	!	!LO:LB:g=original	!	!	!	!	!	!	!	!	!	!	!
!	!	!	!	!LO:TX:a:t=P:problem:klamra łukowa	!	!	!	!	!	!	!	!	!	!	!
8EE/	.	8d/J	.	24g/LL	.	.	.	.	.	.	.	.	.	.	.
.	.	.	.	24f#/	.	.	.	.	.	.	.	.	.	.	.
.	.	.	.	24e/JJ	.	.	.	.	.	.	.	.	.	.	.
.	.	.	.	8qqf#t/	.	.	.	.	.	.	.	.	.	.	.
8AA/	.	8d/L	.	4e/	.	.	.	.	.	.	.	.	.	.	.
8AA/J	4#	8c#X/J	.	.	.	.	.	.	.	.	.	.	.	.	.
=48	=48	=48	=48	=48	=48	=48	=48	=48	=48	=48	=48	=48	=48	=48	=48
!LO:TX:a:t=P:problem:mixed beam	!	!	!	!	!	!	!	!	!	!	!	!	!	!	!
8DD/L	.	8d/L	.	4.d/	.	.	.	.	.	.	.	.	.	4r	.
8D\	.	8f#/	.	.	.	.	.	.	.	.	.	.	.	.	.
8BB\	.	8g/	.	.	.	.	.	.	.	.	.	.	.	8r	.
8GG\J	.	8b/J	.	8dd\	.	.	.	.	.	.	.	.	.	8G/	.
!	!	!LO:PB:g=original	!	!	!	!	!	!	!	!	!	!	!	!	!
2r	.	(16cc\KL	.	16ee\KL	.	.	.	.	.	.	.	.	.	8G/L	.
.	.	8b\	.	8dd\	.	.	.	.	.	.	.	.	.	.	.
.	.	.	.	.	.	.	.	.	.	.	.	.	.	8G/	.
.	.	16a\Jk)	.	16cc\Jk	.	.	.	.	.	.	.	.	.	.	.
.	.	(16a\KL	.	16cc\KL	.	.	.	.	.	.	.	.	.	8G/	.
.	.	8b\	.	8dd\	.	.	.	.	.	.	.	.	.	.	.
.	.	.	.	.	.	.	.	.	.	.	.	.	.	8G/J	.
.	.	16cc\Jk)	.	16ee\Jk	.	.	.	.	.	.	.	.	.	.	.
=49	=49	=49	=49	=49	=49	=49	=49	=49	=49	=49	=49	=49	=49	=49	=49
4G\	.	(16b/KL	.	16dd\KL	.	.	.	.	.	.	.	.	.	8G/L	.
.	.	8a/	.	8cc\	.	.	.	.	.	.	.	.	.	.	.
.	.	.	.	.	.	.	.	.	.	.	.	.	.	8G/	.
.	.	16g/Jk)	.	16b\Jk	.	.	.	.	.	.	.	.	.	.	.
4r	.	(16g/KL	.	16b\KL	.	.	.	.	.	.	.	.	.	8G/	.
.	.	8a/	.	8cc\	.	.	.	.	.	.	.	.	.	.	.
.	.	.	.	.	.	.	.	.	.	.	.	.	.	8G/J	.
.	.	16b/Jk)	.	16dd\Jk	.	.	.	.	.	.	.	.	.	.	.
8r	.	8cc\	.	8ee\	.	.	.	.	.	.	.	.	.	8G/L	.
!	!	!	!LO:DY:t=Pia	!	!	!	!	!	!	!	!	!	!	!	!
!	!	!	!LO:DY:a	!	!	!	!	!	!	!	!	!	!	!	!
8G\L	.	4b\	p	4dd\	.	.	.	.	.	.	.	.	.	8G/J	.
8B\	.	.	.	.	.	.	.	.	.	.	.	.	.	8r	.
8G\J	.	8B/	.	8d/	.	.	.	.	.	.	.	.	.	8G/	.
!	!	!	!	!	!	!	!	!	!	!	!	!	!	!LO:LB:g=original	!
=50	=50	=50	=50	=50	=50	=50	=50	=50	=50	=50	=50	=50	=50	=50	=50
2r	.	16c/KL	.	16e/KL	00r	.	00r	.	0r	.	0r	.	.	8G/L	.
.	.	8B/	.	8d/	.	.	.	.	.	.	.	.	.	.	.
.	.	.	.	.	.	.	.	.	.	.	.	.	.	8G/	.
.	.	16A/Jk	.	16c/Jk	.	.	.	.	.	.	.	.	.	.	.
.	.	16A/KL	.	16c/KL	.	.	.	.	.	.	.	.	.	8G/	.
.	.	8B/	.	8d/	.	.	.	.	.	.	.	.	.	.	.
.	.	.	.	.	.	.	.	.	.	.	.	.	.	8G/J	.
.	.	16c/Jk	.	16e/Jk	.	.	.	.	.	.	.	.	.	.	.
4G\	.	16B/KL	.	16d/KL	.	.	.	.	.	.	.	.	.	8G/L	.
.	.	8A/	.	8c/	.	.	.	.	.	.	.	.	.	.	.
.	.	.	.	.	.	.	.	.	.	.	.	.	.	8G/	.
.	.	16G/Jk	.	16B/Jk	.	.	.	.	.	.	.	.	.	.	.
4r	.	16G/KL	.	16B/KL	.	.	.	.	.	.	.	.	.	8G/	.
.	.	8A/	.	8c/	.	.	.	.	.	.	.	.	.	.	.
.	.	.	.	.	.	.	.	.	.	.	.	.	.	8G/J	.
.	.	16B/Jk	.	16d/Jk	.	.	.	.	.	.	.	.	.	.	.
!	!	!LO:LB:g=original	!	!	!	!	!	!	!	!	!	!	!	!	!
=51	=51	=51	=51	=51	=51	=51	=51	=51	=51	=51	=51	=51	=51	=51	=51
8r	.	8c/	.	8e/	.	.	.	.	.	.	.	.	1r	8G/L	.
8G\L	.	4B/	.	4d/	.	.	.	.	.	.	.	.	.	8G/J	.
8B\	.	.	.	.	.	.	.	.	.	.	.	.	.	4r	.
!	!	!	!	!LO:SIC:t=custos:a	!	!	!	!	!	!	!	!	!	!	!
8G\J	.	8b\	.	8dd\	.	.	.	.	.	.	.	.	.	.	.
!	!	!	!	!LO:LB:g=original	!	!	!	!	!	!	!	!	!	!	!
4C/	.	16cc\LL	.	16ee\LL	.	.	.	.	.	.	.	.	.	2r	.
.	.	16b\	.	16dd\	.	.	.	.	.	.	.	.	.	.	.
.	.	16a\	.	16cc\	.	.	.	.	.	.	.	.	.	.	.
.	.	16g\JJ	.	16b\JJ	.	.	.	.	.	.	.	.	.	.	.
4r	.	16cc\LL	.	16a/LL	.	.	.	.	.	.	.	.	.	.	.
.	.	16b\	.	16g/	.	.	.	.	.	.	.	.	.	.	.
.	.	16a\	.	16f#/	.	.	.	.	.	.	.	.	.	.	.
.	.	16g\JJ	.	16e/JJ	.	.	.	.	.	.	.	.	.	.	.
=52	=52	=52	=52	=52	=52	=52	=52	=52	=52	=52	=52	=52	=52	=52	=52
8r	7	8f#/	.	8d/	.	.	.	.	1r	.	1r	.	4r	4r	.
8D\L	.	4aa\	.	4ccc\	.	.	.	.	.	.	.	.	.	.	.
8F#\	.	.	.	.	.	.	.	.	.	.	.	.	8r	8r	.
8A\J	.	16gg\LL	.	16bb\LL	.	.	.	.	.	.	.	.	8a\	8cc\	.
.	.	16ff#\JJ	.	16aa\JJ	.	.	.	.	.	.	.	.	.	.	.
8G\L	.	8gg\L	.	8bb\L	.	.	.	.	.	.	.	.	16b\LL	16b\LL	.
.	.	.	.	.	.	.	.	.	.	.	.	.	16g\	16cc\	.
8E\	.	8dd\J	.	16aa\L	.	.	.	.	.	.	.	.	16b\	16dd\	.
.	.	.	.	16gg\JJ	.	.	.	.	.	.	.	.	16cc\JJ	16ee\JJ	.
8C\	.	8ee\L	.	8aa\L	.	.	.	.	.	.	.	.	8g\L	8b\L	.
8D\J	.	16dd\L	.	8ff#\J	.	.	.	.	.	.	.	.	8d\J	16a\L	.
.	.	16cc\JJ	.	.	.	.	.	.	.	.	.	.	.	16g\JJ	.
=53	=53	=53	=53	=53	=53	=53	=53	=53	=53	=53	=53	=53	=53	=53	=53
!LO:TX:a:t=P:problem:mixed beam	!	!	!	!LO:TX:a:t=P:problem:mixed beam	!	!	!	!	!	!	!	!	!	!	!
8E\L	.	8b/L	.	16gg\LL	.	.	.	.	2r	.	2r;;	.	8B/L	16g\LL	.
.	.	.	.	16g/JJ	.	.	.	.	.	.	.	.	.	16b\	.
!	!	!	!	!LO:TX:a:t=P:problem:klamra łukowa	!	!	!	!	!	!	!	!	!	!	!
8C\	.	8e/	.	24cc\LL	.	.	.	.	.	.	.	.	8G/J	16cc\	.
.	.	.	.	24b\	.	.	.	.	.	.	.	.	.	.	.
.	.	.	.	.	.	.	.	.	.	.	.	.	.	16b\JJ	.
.	.	.	.	24a\JJ	.	.	.	.	.	.	.	.	.	.	.
.	.	.	.	8qqb/	.	.	.	.	.	.	.	.	.	8qqb/	.
8D\	.	8d/	.	4aT/	.	.	.	.	.	.	.	.	16d/LL	4aT\	.
.	.	.	.	.	.	.	.	.	.	.	.	.	16B/	.	.
8DD/J	.	8c/J	.	.	.	.	.	.	.	.	.	.	16G/	.	.
.	.	.	.	.	.	.	.	.	.	.	.	.	16d/JJ	.	.
!LO:PB:g=original	!	!	!	!	!	!	!	!	!LO:TX:a:t=P:problem:fermaty obejmują cały takt	!	!	!	!	!	!
!	!	!	!	!	!	!	!	!	!	!	!LO:TX:a:t=P:problem:brak pauzy 1r	!	!	!	!
4GG;;/	.	4B;;/	.	4g;;/	.	.	.	.	4r;;	.	2ryy	.	4B;;/	4g;;\	.
8r	.	4r	.	4r	.	.	.	.	4r	.	.	.	4r	4r	.
!LO:TX:a:t=Solo	!	!	!	!	!	!	!	!	!	!	!	!	!	!	!
8E\	.	.	.	.	.	.	.	.	.	.	.	.	.	.	.
!	!	!	!	!	!	!	!	!	!	!	!	!	!LO:LB:g=original	!	!
=54	=54	=54	=54	=54	=54	=54	=54	=54	=54	=54	=54	=54	=54	=54	=54
8B\L	#	0r	.	0r	00r	.	00r	.	00r	.	2ryy	.	00r	00r	.
8G\	6	.	.	.	.	.	.	.	.	.	.	.	.	.	.
8F#\	6|	.	.	.	.	.	.	.	.	.	.	.	.	.	.
8B\J	#	.	.	.	.	.	.	.	.	.	.	.	.	.	.
8E\L	.	.	.	.	.	.	.	.	.	.	4r	.	.	.	.
8F#\	.	.	.	.	.	.	.	.	.	.	.	.	.	.	.
8G\	.	.	.	.	.	.	.	.	.	.	8b\	me-	.	.	.
8A\J	.	.	.	.	.	.	.	.	.	.	8ee\	-mo-	.	.	.
=55	=55	=55	=55	=55	=55	=55	=55	=55	=55	=55	=55	=55	=55	=55	=55
8D#X/L	.	.	.	.	.	.	.	.	.	.	(8dd#X\L	-res	.	.	.
8D#/	.	.	.	.	.	.	.	.	.	.	8ee\J)	.	.	.	.
8BB/	.	.	.	.	.	.	.	.	.	.	16ff#\LL	e-	.	.	.
!	!	!	!	!	!	!	!	!	!	!	!LO:SIC:t=custis:f	!	!	!	!
.	.	.	.	.	.	.	.	.	.	.	16a\JJ	.	.	.	.
!	!	!	!	!	!	!	!	!	!	!	!LO:LB:g=original	!	!	!	!
8BB/J	.	.	.	.	.	.	.	.	.	.	(16g/LL	-runt	.	.	.
.	.	.	.	.	.	.	.	.	.	.	16f#/JJ)	.	.	.	.
8E\L	.	.	.	.	.	.	.	.	.	.	16g/	no-	.	.	.
.	.	.	.	.	.	.	.	.	.	.	16f#/	-mi-	.	.	.
8F#\	.	.	.	.	.	.	.	.	.	.	4e/	-nis	.	.	.
8G\	.	.	.	.	.	.	.	.	.	.	.	.	.	.	.
8A\J	.	.	.	.	.	.	.	.	.	.	8cc\	me-	.	.	.
=56	=56	=56	=56	=56	=56	=56	=56	=56	=56	=56	=56	=56	=56	=56	=56
8D#X/L	.	2r	.	2r	.	.	.	.	.	.	8.b\	-mo-	.	.	.
8D#/	.	.	.	.	.	.	.	.	.	.	.	.	.	.	.
.	.	.	.	.	.	.	.	.	.	.	16a,\	-res	.	.	.
8BB/	.	.	.	.	.	.	.	.	.	.	8g/	e-	.	.	.
8BB/J	.	.	.	.	.	.	.	.	.	.	8f#/	-runt	.	.	.
4E\	.	4r	.	4r	.	.	.	.	.	.	8g/	e-	.	.	.
.	.	.	.	.	.	.	.	.	.	.	8e/	-runt	.	.	.
4r	.	8b\L	.	8g#X/L	.	.	.	.	.	.	8ee\	no-	.	.	.
.	.	8cc\J	.	8a/J	.	.	.	.	.	.	8ee\	-mi-	.	.	.
=57	=57	=57	=57	=57	=57	=57	=57	=57	=57	=57	=57	=57	=57	=57	=57
*	*	*	*	*	*	*	*	*	*	*	*2\right	*	*	*	*
2r	.	16dd\LL	.	8b/L	.	.	.	.	.	.	2ee\	-nis,	.	.	.
.	.	16b\J	.	.	.	.	.	.	.	.	.	.	.	.	.
.	.	8cc\J	.	16g#X/L	.	.	.	.	.	.	.	.	.	.	.
.	.	.	.	16a/JJ	.	.	.	.	.	.	.	.	.	.	.
.	.	8g#X/L	.	8B/L	.	.	.	.	.	.	.	.	.	.	.
!	!	!LO:SIC:t=custos:a	!	!	!	!	!	!	!	!	!	!	!	!	!
.	.	8a/J	.	8c/J	.	.	.	.	.	.	.	.	.	.	.
!	!	!LO:LB:g=original	!	!	!	!	!	!	!	!	!	!	!	!	!
8r	.	16b/LL	.	8d/L	.	.	.	.	.	.	16ee\LL	e-	.	.	.
.	.	16g#X/J	.	.	.	.	.	.	.	.	16dd\JJ	.	.	.	.
!	!	!	!	!	!	!	!	!	!	!	!LO:SIC:custos:f	!	!	!	!
8A\L	-	8a/J	.	16B/L	.	.	.	.	.	.	8cc\	-runt	.	.	.
.	.	.	.	16c/JJ	.	.	.	.	.	.	.	.	.	.	.
!	!	!	!	!	!	!	!	!	!	!	!LO:LB:g=original	!	!	!	!
8G\	.	4r	.	4r	.	.	.	.	.	.	8b\	no-	.	.	.
!LO:SIC:s=8Fn	!	!	!	!	!	!	!	!	!	!	!	!	!	!	!
8F-X\J	6|	.	.	.	.	.	.	.	.	.	16a\	-mi-	.	.	.
.	.	.	.	.	.	.	.	.	.	.	16b\	-nis	.	.	.
!	!	!	!	!LO:LB:g=original	!	!	!	!	!	!	!	!	!	!	!
=58	=58	=58	=58	=58	=58	=58	=58	=58	=58	=58	=58	=58	=58	=58	=58
4E\	#	4r	.	4r	1r	.	1r	.	1r	.	8g#X/	tu-	1r	1r	.
!	!	!	!	!	!	!	!	!	!	!	!LO:SIC:l:s=i	!	!	!	!
.	.	.	.	.	.	.	.	.	.	.	8e,/	-j	.	.	.
4r	.	8b\L	.	8g#X/L	.	.	.	.	.	.	8b\	tu-	.	.	.
!	!	!	!	!	!	!	!	!	!	!	!LO:SIC:l:s=i	!	!	!	!
.	.	8cc\J	.	8a/J	.	.	.	.	.	.	8cc,\	-j	.	.	.
4E\	#	8dd\L	.	8b/L	.	.	.	.	.	.	(8dd\L	tu-	.	.	.
.	.	8b\	.	8g#X/J	.	.	.	.	.	.	8b\J)	.	.	.	.
!	!	!	!	!	!	!	!	!	!	!	!LO:SIC:l:s=i	!	!	!	!
8r	.	8cc\	.	4a/	.	.	.	.	.	.	8cc\	-j	.	.	.
8A\	.	8a\J	.	.	.	.	.	.	.	.	[8a\	do-	.	.	.
!LO:LB:g=original	!	!	!	!	!	!	!	!	!	!	!	!	!	!	!
=59	=59	=59	=59	=59	=59	=59	=59	=59	=59	=59	=59	=59	=59	=59	=59
!	!	!	!	!LO:SIC:s=4fn	!	!	!	!	!	!	!	!	!	!	!
4D#X\	6 #	4.a/	.	4f-X/	2r	.	2r	.	2r	.	(8a\L]	.	2r	2r	.
.	.	.	.	.	.	.	.	.	.	.	8b\J)	.	.	.	.
.	.	.	.	.	.	.	.	.	.	.	8qqcc/	.	.	.	.
4E\	.	.	.	4B/	.	.	.	.	.	.	4b\	-mi-	.	.	.
.	.	8g#X/	.	.	.	.	.	.	.	.	.	.	.	.	.
!	!	!LO:TX:a:t=P:problem:mixed beam	!	!LO:TX:a:t=P:problem:mixed beam	!	!	!	!	!	!	!	!	!	!	!
.	.	.	.	.	.	.	.	.	.	.	8qqa/	.	.	.	.
4AA/	.	8a/L	.	8c#X/L	4r	.	4r	.	4r	.	4a\	-ne	4r	4r	.
.	.	16aa\L	.	8cc#X\J	.	.	.	.	.	.	.	.	.	.	.
.	.	16gg\JJ	.	.	.	.	.	.	.	.	.	.	.	.	.
!LO:TX:a:t=P:problem:wysokości poprawiane	!	!	!	!	!	!	!	!	!	!	!	!	!	!	!
8B\L	#	8ff#\L	.	8dd#X\L	8B\	Tu-	8B\	tu-	8f#\	tu-	8dd#X\	tu-	8B/L	8B/L	.
!	!	!	!	!	!LO:SIC:l:s=i	!	!	!	!LO:SIC:l:s=i	!	!LO:SIC:l:s=i	!	!	!	!
8A\J	.	16gg\L	.	16ee\L	8A\	-j	8B\	-i	8f#\	-j	8dd#\	-j	8B/J	8B/J	.
.	.	16aa\JJ	.	16ff#\JJ	.	.	.	.	.	.	.	.	.	.	.
!	!	!	!	!	!	!	!	!	!	!	!LO:LB:g=original	!	!	!	!
=60	=60	=60	=60	=60	=60	=60	=60	=60	=60	=60	=60	=60	=60	=60	=60
8G\L	6	8ee\L	.	16bb\LL	8G\	tu-	8B\	do-	8g\	tu-	8ee\	tu-	8B/L	8B/L	.
.	.	.	.	16aa\	.	.	.	.	.	.	.	.	.	.	.
!	!	!	!	!	!LO:SIC:l:s=i	!	!	!	!LO:SIC:l:s=i	!	!LO:SIC:l:s=i	!	!	!	!
8E\	.	8dd\J	.	16gg\	8E\	-j,	8B\	-mi-	8g,\	-j	8ee,\	-j	16B/L	16B/L	.
.	.	.	.	16aa\JJ	.	.	.	.	.	.	.	.	16B/JJ	16B/JJ	.
8G\	.	16ee\LL	.	8bb\L	8G\	do-	8B\	-ne,	8g\	do-	16ee\LL	do-	16B/LL	16B/LL	.
.	.	16gg\	.	.	.	.	.	.	.	.	16ff#\JJ	.	16B/	16B/	.
8A\J	.	16ff#\	.	16aa\L	8A\	-mi-	8c\	do-	8f#\	-mi-	16ee\LL	-mi-	16B/	16B/	.
.	.	16ee\JJ	.	16gg\JJ	.	.	.	.	.	.	16ff#\JJ	.	16B/JJ	16B/JJ	.
!LO:TX:a:t=P:problem:mixed beam	!	!	!	!	!	!	!	!	!	!	!	!	!	!	!
8B\L	#	16dd#X\LL	.	16ff#X\LL	8B\	-ne	8B\	-mi-	8f#\	-ne	8dd#X\	-ne,	8B/L	8B/L	.
.	.	16b\	.	16dd#X\	.	.	.	.	.	.	.	.	.	.	.
!	!	!LO:TX:a:t=P:problem:krzyżyk nad nutą	!	!	!LO:SIC:t=custos:E	!	!	!	!	!	!	!	!	!	!
8BB/	.	16cc#X\	.	16ee\	8B\	e-	8d#X\	-ne	8f#\	e-	8b\	tu-	8B/J	8B/J	.
.	.	16dd#\JJ	.	16ff#\JJ	.	.	.	.	.	.	.	.	.	.	.
!	!	!	!	!	!LO:LB:g=original	!	!	!	!	!	!LO:SIC:l:s=i	!	!	!	!
8G\	6	8ee\L	.	8gg\L	8G\	-runt,	8B\	e-	8g\	-runt	[8ee\	-j	4r	4r	.
8E\J	.	8gg\J	.	8bb\J	8E\	e-	[8B\	-runt	8g\	e-	8ee\]	.	.	.	.
!	!	!	!	!	!	!	!LO:LB:g=original	!	!	!	!	!	!	!	!
=61	=61	=61	=61	=61	=61	=61	=61	=61	=61	=61	=61	=61	=61	=61	=61
!	!	!	!	!	!LO:TX:a:t=P:problem:ósemki pierwotnie rozdzielone, wtórnie połączone	!	!	!	!	!	!	!	!	!LO:TX:a:t=2	!
8C/L	7	8gg\L	.	8bb\L	(8c\L	-runt	8B\]	no-	8g\	-runt,	8.ee\	tu-	0r	0r	.
8BB/	.	8dd#X\J	.	16ccc\L	8B\J)	.	8B\	-mi-	8b\	no-	.	.	.	.	.
!	!	!	!	!	!	!	!	!	!	!	!LO:SIC:l:s=i	!	!	!	!
.	.	.	.	16bb\JJ	.	.	.	.	.	.	16dd#X\	-j	.	.	.
8C/	6	8ee\L	.	16aa\LL	(8c\L	no-	8e,\	-nis	[8.a\	-mi-	(8.ee\	do-	.	.	.
.	.	.	.	16gg\	.	.	.	.	.	.	.	.	.	.	.
8AA/J	6	16ff#\L	.	16aa\	8B\J)	.	8c\	no-	.	.	.	.	.	.	.
.	.	16ee\JJ	.	16gg\JJ	.	.	.	.	16a\]	.	16ff#\)	.	.	.	.
!LO:TX:a:t=P:problem:mixed beam	!	!	!	!	!	!	!	!	!LO:LB:g=original	!	!	!	!	!	!
8BB/L	.	16dd#X\LL	.	8ff#\L	8B\	-mi-	8B\	-mi-	8f#\	-nis	8dd#X\	.	.	.	.
.	.	16b\	.	.	.	.	.	.	.	.	.	.	.	.	.
!	!	!LO:TX:a:t=P:problem:krzyżyk nad nutą	!	!	!	!	!	!	!	!	!	!	!	!	!
8B\	.	16cc#X\	.	16dd#X\L	8B\	-nis	8f#\	-nis	16d#X\LL	tu-	16b\LL	.	.	.	.
.	.	16dd#X\JJ	.	16ee\JJ	.	.	.	.	16e\JJ	.	16cc#X\JJ	.	.	.	.
!	!	!LO:TX:a:t=P:problem:krzyżyk nad nutą	!	!	!	!	!	!	!LO:SIC:l:s=i	!	!	!	!	!	!
8B\	.	16dd#X\LL	.	16ff#\LL	8B\	tu-	8d#X\	tu-	16f#\LL	-j	16dd#X\LL	.	.	.	.
.	.	16ee\	.	16gg\	.	.	.	.	16g\JJ	.	16ee\JJ	.	.	.	.
!	!	!LO:TX:a:t=P:problem:krzyżyk nad nutą	!	!	!LO:SIC:l:s=i	!	!LO:SIC:l:s=i	!	!	!	!	!	!	!	!
8B\J	.	16dd#X\	.	16ff#\	8B\	-j	8B\	-j	16f#\LL	do-	16dd#\LL	.	.	.	.
.	.	16ee\JJ	.	16gg\JJ	.	.	.	.	16g\JJ	.	16ee\JJ	.	.	.	.
!	!	!LO:LB:g=original	!	!LO:LB:g=original	!	!	!	!	!	!	!LO:LB:g=original	!	!	!	!
=62	=62	=62	=62	=62	=62	=62	=62	=62	=62	=62	=62	=62	=62	=62	=62
!	!	!LO:TX:a:t=P:problem:mixed beam	!	!LO:TX:a:t=P:problem:mixed beam	!	!	!	!	!	!	!	!	!	!LO:TX:a:t=Vertecito	!
8A\L	6 4 2	8ff#\L	.	8aa\L	8A\	{no-	8.d#X\	no-	16a\LL	.	16ff#\LL	.	.	.	.
.	.	.	.	.	.	.	.	.	16g\JJ	.	16ee\JJ	.	.	.	.
8A\	.	16B/L	.	16d#X/L	8A\	-mi-	.	.	16f#\LL	.	16dd#X\LL	.	.	.	.
.	.	16c#X/JJ	.	16e/JJ	.	.	16d#\	-mi-	16g\JJ	.	16ee\JJ	.	.	.	.
8A\	.	16d#X/LL	.	16f#/LL	8A\	-nis	8.d#\	-nis	16a\LL	.	16ff#\LL	.	.	.	.
.	.	16e/	.	16g/	.	.	.	.	16b\JJ	.	16gg\	.	.	.	.
8A\J	.	16d#/	.	16f#/	8A\	tu-	.	.	16a\LL	.	16ff#\	.	.	.	.
.	.	16e/JJ	.	16g/JJ	.	.	16d#\	tu-	16b\JJ	.	16gg\JJ	.	.	.	.
!	!	!	!	!	!	!	!LO:SIC:l:s=i	!	!	!	!	!	!	!	!
8D#X\L	.	8f#/L	.	8a\L	8D#X/	-i}	8d#\	-j	8a\	.	8ff#\	.	.	.	.
8D#\	.	8a/J	.	8dd#X\	4D#/	do-	4A\	do-	4f#\	.	4b\	.	.	.	.
8D#\	.	8dd#X\L	.	8ff#\	.	.	.	.	.	.	.	.	.	.	.
8D#\J	.	8ff#\J	.	8aa\J	8D#/	.	8B\	.	8f#\	.	8a\	.	.	.	.
!	!	!	!	!	!	!	!	!	!	!	!	!	!	!LO:PB:g=original	!
=63	=63	=63	=63	=63	=63	=63	=63	=63	=63	=63	=63	=63	=63	=63	=63
4E\	-	8b\	.	8gg\	4E\	.	4B\	.	4.e\	.	4g/	.	2r	2r	.
.	.	4ee\	.	4gg\	.	.	.	.	.	.	.	.	.	.	.
!LO:SIC:t=custos:AA#	!	!	!	!	!	!	!	!	!	!	!	!	!	!	!
4AA#X/	6	.	.	.	4AA#X/	.	4c#X\	.	.	.	4f#/	.	.	.	.
.	.	8cc#X\	.	16ff#\LL	.	.	.	.	8e\	.	.	.	.	.	.
.	.	.	.	16ee\JJ	.	.	.	.	.	.	.	.	.	.	.
.	.	.	.	.	.	.	.	.	8qqf#/	.	.	.	.	.	.
!LO:LB:g=original	!	!	!	!	!	!	!	!	!	!	!	!	!	!	!
2BB/	4#	2f#/	.	4.eeT\	4.BB/	.	4.B\	.	4.e\	.	4.f#/	.	16r	16r	.
.	.	.	.	.	.	.	.	.	.	.	.	.	16B/LL	16B/LL	.
.	.	.	.	.	.	.	.	.	.	.	.	.	16B/	16B/	.
.	.	.	.	.	.	.	.	.	.	.	.	.	16B/JJ	16B/JJ	.
.	.	.	.	.	.	.	.	.	.	.	.	.	16B/LL	16B/LL	.
.	.	.	.	.	.	.	.	.	.	.	.	.	16B/	16B/	.
.	.	.	.	8dd#X\	8BB/	-mi-	8B\	-mi-	8d#X\	-mi-	8f#/	-mi-	16B/	16B/	.
.	.	.	.	.	.	.	.	.	.	.	.	.	16B/JJ	16B/JJ	.
!	!	!	!	!	!	!	!LO:LB:g=original	!	!	!	!	!	!	!	!
=64	=64	=64	=64	=64	=64	=64	=64	=64	=64	=64	=64	=64	=64	=64	=64
!LO:TX:a:t=Da Capo Us(que) ad ſignum Finis	!	!	!	!	!LO:TX:b:t=Stanisław G&colon; Szuksztatowicz /n mp	!	!LO:TX:b:t=Stanisław G&colon; Szuksztatowicz /n mp	!	!LO:TX:b:t=Stanisław G&colon; Szuksztatowicz /n mp	!	!	!	!	!	!
!LO:TX:b:t=Stanisław G&colon; Szuksztatowicz /n mp	!	!LO:TX:a:t=Da Capo Us(que) ad Finis	!	!LO:TX:a:t=Da Capo Us(que) ad finis	!LO:TX:a:t=Da Capo ad  us(que) Finis	!	!LO:TX:a:t=Da Capo ad ſignum Finis	!	!LO:TX:b:t=Da Capo us(que) ad ſignum Finis	!	!LO:TX:a:t=Da Capo us(que) ad finis	!	!LO:TX:a:t=Da Capo ad Finis	!LO:TX:a:t=Da Capo Us(que) ad Finis	!
1EE	.	1g#X	.	1ee	1EE	-ne	1B	-ne	1e	-ne	1g#X	-ne	1B	1B	.
==	==	==	==	==	==	==	==	==	==	==	==	==	==	==	==
*-	*-	*-	*-	*-	*-	*-	*-	*-	*-	*-	*-	*-	*-	*-	*-
!!!system-decoration: [(g1)][(g2)][(g3)][(g4)]
!!!RDF**kern: >= above
!!!RDF**kern: <=below
!!!ENC: Kamil Watkowski
!!!END: 2020-05-23
!!!ENC:Anna Matuszewska
!!!END:2020-10-25
